;FLAVOR:Marlin
;TIME:5873
;Filament used: 10.1643m
;Layer height: 0.28
;MINX:29.9
;MINY:67.65
;MINZ:0.28
;MAXX:190.1
;MAXY:152.35
;MAXZ:24.08
;Generated with Cura_SteamEngine 4.4.1
M140 S60
M105
M190 S60
M104 S200
M105
M109 S200
M82 ;absolute extrusion mode
M201 X500.00 Y500.00 Z100.00 E5000.00 ;Setup machine max acceleration
M203 X500.00 Y500.00 Z10.00 E50.00 ;Setup machine max feedrate
M204 P500.00 R1000.00 T500.00 ;Setup Print/Retract/Travel acceleration
M205 X8.00 Y8.00 Z0.40 E5.00 ;Setup Jerk
M220 S100 ;Reset Feedrate
M221 S100 ;Reset Flowrate

G28 ;Home

G92 E0 ;Reset Extruder
G1 Z2.0 F3000 ;Move Z Axis up
G1 X10.1 Y20 Z0.28 F5000.0 ;Move to start position
G1 X10.1 Y200.0 Z0.28 F1500.0 E15 ;Draw the first line
G1 X10.4 Y200.0 Z0.28 F5000.0 ;Move to side a little
G1 X10.4 Y20 Z0.28 F1500.0 E30 ;Draw the second line
G92 E0 ;Reset Extruder
G1 Z2.0 F3000 ;Move Z Axis up

G92 E0
G92 E0
G1 F1500 E-6.5
;LAYER_COUNT:86
;LAYER:0
M107
G0 F6000 X37.805 Y69.696 Z0.28
;TYPE:SKIRT
G1 F1500 E0
G1 F1200 X38.341 Y69.414 E0.0282
G1 X38.794 Y69.192 E0.05169
G1 X39.109 Y69.044 E0.0679
G1 X39.377 Y68.923 E0.08159
G1 X40.247 Y68.574 E0.12524
G1 X40.887 Y68.371 E0.1565
G1 X41.378 Y68.231 E0.18028
G1 X41.665 Y68.153 E0.19413
G1 X41.95 Y68.08 E0.20783
G1 X42.867 Y67.886 E0.25147
G1 X43.53 Y67.796 E0.28263
G1 X44.006 Y67.746 E0.30491
G1 X44.352 Y67.715 E0.32109
G1 X44.639 Y67.694 E0.33449
G1 X45.264 Y67.666 E0.36362
G1 X46.129 Y67.652 E0.4039
G1 X46.307 Y67.651 E0.41219
G1 X108.63 Y67.65 E3.31421
G1 X173.793 Y67.65 E6.34847
G1 X173.953 Y67.651 E6.35592
G1 X174.641 Y67.661 E6.38796
G1 X175.26 Y67.688 E6.41681
G1 X175.711 Y67.72 E6.43787
G1 X176.049 Y67.749 E6.45366
G1 X176.392 Y67.784 E6.46972
G1 X177.32 Y67.919 E6.51338
G1 X177.932 Y68.053 E6.54256
G1 X178.382 Y68.165 E6.56415
G1 X178.688 Y68.246 E6.57889
G1 X178.999 Y68.333 E6.59393
G1 X179.891 Y68.624 E6.63762
G1 X180.519 Y68.881 E6.66921
G1 X181.012 Y69.101 E6.69435
G1 X181.258 Y69.215 E6.70698
G1 X181.489 Y69.325 E6.71889
G1 X182.318 Y69.763 E6.76255
G1 X182.905 Y70.133 E6.79486
G1 X183.34 Y70.426 E6.81928
G1 X183.612 Y70.614 E6.83468
G1 X183.832 Y70.772 E6.84729
G1 X184.569 Y71.351 E6.89093
G1 X185.044 Y71.782 E6.9208
G1 X185.419 Y72.143 E6.94503
G1 X185.68 Y72.403 E6.96219
G1 X185.885 Y72.614 E6.97589
G1 X186.509 Y73.314 E7.01955
G1 X186.883 Y73.798 E7.04803
G1 X187.171 Y74.193 E7.0708
G1 X187.386 Y74.499 E7.08821
G1 X187.561 Y74.757 E7.10273
G1 X188.054 Y75.555 E7.1464
G1 X188.336 Y76.091 E7.17461
G1 X188.558 Y76.544 E7.1981
G1 X188.706 Y76.859 E7.2143
G1 X188.827 Y77.127 E7.22799
G1 X189.176 Y77.997 E7.27164
G1 X189.376 Y78.625 E7.30233
G1 X189.512 Y79.1 E7.32534
G1 X189.594 Y79.402 E7.33991
G1 X189.671 Y79.703 E7.35438
G1 X189.864 Y80.621 E7.39806
G1 X189.954 Y81.28 E7.42903
G1 X190.004 Y81.756 E7.45132
G1 X190.034 Y82.097 E7.46726
G1 X190.055 Y82.382 E7.48056
G1 X190.084 Y83.012 E7.50993
G1 X190.098 Y83.879 E7.55031
G1 X190.099 Y84.057 E7.55859
G1 X190.1 Y136.01 E9.97774
G1 X190.099 Y136.165 E9.98496
G1 X190.089 Y136.873 E10.01793
G1 X190.062 Y137.503 E10.04729
G1 X190.027 Y137.992 E10.07012
G1 X190 Y138.308 E10.08489
G1 X189.968 Y138.626 E10.09977
G1 X189.834 Y139.555 E10.14348
G1 X189.697 Y140.182 E10.17336
G1 X189.585 Y140.632 E10.19496
G1 X189.502 Y140.947 E10.21012
G1 X189.415 Y141.257 E10.22512
G1 X189.123 Y142.149 E10.26882
G1 X188.873 Y142.76 E10.29956
G1 X188.653 Y143.254 E10.32474
G1 X188.535 Y143.508 E10.33778
G1 X188.425 Y143.739 E10.3497
G1 X187.987 Y144.568 E10.39335
G1 X187.617 Y145.155 E10.42566
G1 X187.324 Y145.59 E10.45009
G1 X187.131 Y145.868 E10.46585
G1 X186.967 Y146.096 E10.47892
G1 X186.387 Y146.834 E10.52263
G1 X185.942 Y147.322 E10.55338
G1 X185.584 Y147.692 E10.57736
G1 X185.343 Y147.934 E10.59326
G1 X185.135 Y148.136 E10.60676
G1 X184.434 Y148.76 E10.65046
G1 X183.952 Y149.133 E10.67884
G1 X183.557 Y149.421 E10.7016
G1 X183.251 Y149.636 E10.71902
G1 X182.993 Y149.811 E10.73353
G1 X182.195 Y150.304 E10.77721
G1 X181.659 Y150.586 E10.80541
G1 X181.206 Y150.808 E10.8289
G1 X180.877 Y150.962 E10.84582
G1 X180.608 Y151.083 E10.85955
G1 X179.738 Y151.431 E10.90318
G1 X179.118 Y151.628 E10.93348
G1 X178.628 Y151.768 E10.95721
G1 X178.335 Y151.847 E10.97134
G1 X178.05 Y151.92 E10.98503
G1 X177.133 Y152.114 E11.02868
G1 X176.47 Y152.204 E11.05983
G1 X175.994 Y152.254 E11.08212
G1 X175.648 Y152.285 E11.0983
G1 X175.361 Y152.306 E11.1117
G1 X174.735 Y152.334 E11.14087
G1 X173.864 Y152.348 E11.18144
G1 X173.69 Y152.349 E11.18954
G1 X170.275 Y152.35 E11.34856
G1 X46.207 Y152.35 E17.12568
G1 X46.047 Y152.349 E17.13313
G1 X45.359 Y152.339 E17.16517
G1 X44.74 Y152.312 E17.19402
G1 X44.289 Y152.28 E17.21508
G1 X43.951 Y152.251 E17.23087
G1 X43.608 Y152.216 E17.24693
G1 X42.68 Y152.081 E17.29059
G1 X42.068 Y151.947 E17.31977
G1 X41.618 Y151.835 E17.34136
G1 X41.312 Y151.754 E17.3561
G1 X41.001 Y151.667 E17.37114
G1 X40.109 Y151.376 E17.41483
G1 X39.481 Y151.119 E17.44642
G1 X38.988 Y150.899 E17.47156
G1 X38.685 Y150.758 E17.48712
G1 X38.447 Y150.643 E17.49943
G1 X37.621 Y150.2 E17.54307
G1 X37.092 Y149.865 E17.57223
G1 X36.664 Y149.577 E17.59625
G1 X36.382 Y149.381 E17.61224
G1 X36.154 Y149.217 E17.62532
G1 X35.416 Y148.637 E17.66903
G1 X34.928 Y148.192 E17.69978
G1 X34.558 Y147.834 E17.72375
G1 X34.316 Y147.593 E17.73966
G1 X34.114 Y147.385 E17.75316
G1 X33.49 Y146.684 E17.79686
G1 X33.115 Y146.199 E17.82541
G1 X32.825 Y145.801 E17.84834
G1 X32.612 Y145.499 E17.86554
G1 X32.439 Y145.244 E17.87989
G1 X31.946 Y144.446 E17.92357
G1 X31.657 Y143.894 E17.95258
G1 X31.428 Y143.425 E17.97689
G1 X31.291 Y143.133 E17.9919
G1 X31.177 Y142.881 E18.00478
G1 X30.827 Y142.011 E18.04845
G1 X30.619 Y141.358 E18.08036
G1 X30.473 Y140.845 E18.1052
G1 X30.393 Y140.55 E18.11943
G1 X30.326 Y140.287 E18.13207
G1 X30.134 Y139.369 E18.17574
G1 X30.046 Y138.72 E18.20624
G1 X29.996 Y138.244 E18.22852
G1 X29.966 Y137.903 E18.24446
G1 X29.945 Y137.618 E18.25777
G1 X29.916 Y136.988 E18.28713
G1 X29.902 Y136.121 E18.32751
G1 X29.901 Y135.943 E18.3358
G1 X29.9 Y83.958 E20.75644
G1 X29.901 Y83.795 E20.76403
G1 X29.911 Y83.119 E20.79551
G1 X29.938 Y82.497 E20.8245
G1 X29.973 Y82.008 E20.84733
G1 X30 Y81.692 E20.8621
G1 X30.032 Y81.374 E20.87698
G1 X30.166 Y80.445 E20.92068
G1 X30.303 Y79.818 E20.95057
G1 X30.415 Y79.368 E20.97216
G1 X30.498 Y79.053 E20.98733
G1 X30.585 Y78.743 E21.00232
G1 X30.877 Y77.851 E21.04603
G1 X31.127 Y77.24 E21.07677
G1 X31.347 Y76.746 E21.10195
G1 X31.465 Y76.492 E21.11499
G1 X31.575 Y76.261 E21.1269
G1 X32.013 Y75.432 E21.17056
G1 X32.385 Y74.841 E21.20308
G1 X32.687 Y74.393 E21.22824
G1 X32.885 Y74.109 E21.24436
G1 X33.04 Y73.894 E21.2567
G1 X33.62 Y73.157 E21.30037
G1 X34.06 Y72.676 E21.33072
G1 X34.424 Y72.3 E21.35509
G1 X34.667 Y72.056 E21.37113
G1 X34.869 Y71.86 E21.38423
G1 X35.569 Y71.237 E21.42787
G1 X36.048 Y70.867 E21.45605
G1 X36.443 Y70.579 E21.47881
G1 X36.749 Y70.364 E21.49623
G1 X37.007 Y70.189 E21.51074
G1 X37.805 Y69.696 E21.55442
G0 F6000 X38.015 Y70.036
G1 F1200 X38.517 Y69.774 E21.58079
G1 X38.97 Y69.552 E21.60428
G1 X39.273 Y69.409 E21.61988
G1 X39.541 Y69.288 E21.63357
G1 X40.396 Y68.946 E21.67645
G1 X40.996 Y68.755 E21.70577
G1 X41.487 Y68.615 E21.72955
G1 X41.764 Y68.54 E21.74291
G1 X42.049 Y68.467 E21.75661
G1 X42.95 Y68.278 E21.79948
G1 X43.572 Y68.194 E21.8287
G1 X44.048 Y68.144 E21.85099
G1 X44.381 Y68.114 E21.86656
G1 X44.668 Y68.093 E21.87996
G1 X45.27 Y68.066 E21.90802
G1 X46.135 Y68.052 E21.9483
G1 X46.307 Y68.051 E21.95631
G1 X108.63 Y68.05 E24.85833
G1 X173.793 Y68.05 E27.89259
G1 X173.947 Y68.051 E27.89976
G1 X174.635 Y68.061 E27.9318
G1 X175.231 Y68.087 E27.95958
G1 X175.682 Y68.119 E27.98063
G1 X176.008 Y68.147 E27.99587
G1 X176.351 Y68.182 E28.01192
G1 X177.262 Y68.315 E28.05479
G1 X177.835 Y68.441 E28.08211
G1 X178.285 Y68.553 E28.10371
G1 X178.581 Y68.631 E28.11796
G1 X178.892 Y68.718 E28.133
G1 X179.767 Y69.004 E28.17586
G1 X180.356 Y69.246 E28.20551
G1 X180.849 Y69.466 E28.23065
G1 X181.086 Y69.576 E28.24282
G1 X181.317 Y69.686 E28.25473
G1 X182.131 Y70.117 E28.29762
G1 X182.682 Y70.464 E28.32794
G1 X183.117 Y70.757 E28.35236
G1 X183.378 Y70.939 E28.36718
G1 X183.598 Y71.097 E28.37979
G1 X184.322 Y71.666 E28.42267
G1 X184.766 Y72.07 E28.45062
G1 X185.141 Y72.431 E28.47486
G1 X185.393 Y72.682 E28.49142
G1 X185.598 Y72.893 E28.50512
G1 X186.21 Y73.58 E28.54796
G1 X186.56 Y74.034 E28.57465
G1 X186.848 Y74.429 E28.59742
G1 X187.055 Y74.724 E28.6142
G1 X187.23 Y74.982 E28.62871
G1 X187.714 Y75.765 E28.67158
G1 X187.976 Y76.267 E28.69794
G1 X188.198 Y76.72 E28.72143
G1 X188.341 Y77.023 E28.73703
G1 X188.462 Y77.291 E28.75073
G1 X188.804 Y78.146 E28.79361
G1 X188.992 Y78.735 E28.8224
G1 X189.128 Y79.21 E28.8454
G1 X189.206 Y79.501 E28.85943
G1 X189.283 Y79.802 E28.8739
G1 X189.473 Y80.703 E28.91678
G1 X189.556 Y81.322 E28.94586
G1 X189.606 Y81.798 E28.96814
G1 X189.635 Y82.126 E28.98348
G1 X189.656 Y82.411 E28.99678
G1 X189.684 Y83.019 E29.02512
G1 X189.698 Y83.886 E29.0655
G1 X189.699 Y84.057 E29.07346
G1 X189.7 Y136.01 E31.49261
G1 X189.699 Y136.16 E31.4996
G1 X189.689 Y136.868 E31.53257
G1 X189.663 Y137.475 E31.56086
G1 X189.628 Y137.964 E31.58369
G1 X189.602 Y138.268 E31.59789
G1 X189.57 Y138.586 E31.61278
G1 X189.438 Y139.497 E31.65564
G1 X189.309 Y140.085 E31.68367
G1 X189.197 Y140.535 E31.70526
G1 X189.117 Y140.839 E31.7199
G1 X189.03 Y141.149 E31.73489
G1 X188.743 Y142.024 E31.77777
G1 X188.507 Y142.597 E31.80663
G1 X188.287 Y143.091 E31.83181
G1 X188.174 Y143.336 E31.84437
G1 X188.064 Y143.567 E31.85628
G1 X187.633 Y144.381 E31.89917
G1 X187.286 Y144.932 E31.92949
G1 X186.993 Y145.367 E31.95392
G1 X186.806 Y145.635 E31.96913
G1 X186.642 Y145.863 E31.98221
G1 X186.073 Y146.586 E32.02505
G1 X185.655 Y147.044 E32.05392
G1 X185.297 Y147.414 E32.0779
G1 X185.064 Y147.647 E32.09324
G1 X184.856 Y147.849 E32.10674
G1 X184.168 Y148.461 E32.14962
G1 X183.716 Y148.81 E32.17621
G1 X183.321 Y149.098 E32.19897
G1 X183.026 Y149.305 E32.21575
G1 X182.768 Y149.48 E32.23027
G1 X181.985 Y149.964 E32.27313
G1 X181.483 Y150.226 E32.2995
G1 X181.03 Y150.448 E32.32299
G1 X180.713 Y150.597 E32.3393
G1 X180.444 Y150.718 E32.35304
G1 X179.589 Y151.059 E32.3959
G1 X179.008 Y151.243 E32.42428
G1 X178.518 Y151.383 E32.448
G1 X178.236 Y151.46 E32.46162
G1 X177.951 Y151.533 E32.47532
G1 X177.05 Y151.722 E32.51818
G1 X176.428 Y151.806 E32.54741
G1 X175.952 Y151.856 E32.5697
G1 X175.619 Y151.886 E32.58526
G1 X175.332 Y151.907 E32.59866
G1 X174.728 Y151.934 E32.62682
G1 X173.857 Y151.948 E32.66738
G1 X173.69 Y151.949 E32.67516
G1 X170.275 Y151.95 E32.83417
G1 X46.207 Y151.95 E38.6113
G1 X46.053 Y151.949 E38.61847
G1 X45.365 Y151.939 E38.65051
G1 X44.769 Y151.913 E38.67829
G1 X44.318 Y151.881 E38.69934
G1 X43.992 Y151.853 E38.71458
G1 X43.649 Y151.818 E38.73063
G1 X42.738 Y151.685 E38.7735
G1 X42.165 Y151.559 E38.80082
G1 X41.715 Y151.447 E38.82241
G1 X41.419 Y151.369 E38.83667
G1 X41.108 Y151.282 E38.8517
G1 X40.233 Y150.996 E38.89457
G1 X39.644 Y150.754 E38.92422
G1 X39.151 Y150.534 E38.94936
G1 X38.859 Y150.398 E38.96436
G1 X38.621 Y150.283 E38.97666
G1 X37.811 Y149.847 E39.0195
G1 X37.315 Y149.533 E39.04683
G1 X36.887 Y149.245 E39.07086
G1 X36.615 Y149.056 E39.08628
G1 X36.387 Y148.892 E39.09936
G1 X35.664 Y148.323 E39.1422
G1 X35.206 Y147.905 E39.17107
G1 X34.836 Y147.547 E39.19504
G1 X34.603 Y147.314 E39.21039
G1 X34.401 Y147.106 E39.22389
G1 X33.789 Y146.418 E39.26676
G1 X33.438 Y145.963 E39.29352
G1 X33.148 Y145.565 E39.31645
G1 X32.943 Y145.274 E39.33303
G1 X32.77 Y145.019 E39.34738
G1 X32.287 Y144.235 E39.39025
G1 X32.017 Y143.719 E39.41737
G1 X31.788 Y143.25 E39.44168
G1 X31.655 Y142.968 E39.45619
G1 X31.541 Y142.716 E39.46907
G1 X31.199 Y141.861 E39.51195
G1 X31.004 Y141.249 E39.54186
G1 X30.858 Y140.736 E39.5667
G1 X30.781 Y140.451 E39.58044
G1 X30.714 Y140.188 E39.59308
G1 X30.526 Y139.287 E39.63594
G1 X30.444 Y138.678 E39.66455
G1 X30.394 Y138.202 E39.68684
G1 X30.365 Y137.874 E39.70217
G1 X30.344 Y137.589 E39.71548
G1 X30.316 Y136.981 E39.74382
G1 X30.302 Y136.114 E39.7842
G1 X30.301 Y135.943 E39.79216
G1 X30.3 Y83.958 E42.2128
G1 X30.301 Y83.801 E42.22011
G1 X30.311 Y83.125 E42.25159
G1 X30.337 Y82.525 E42.27955
G1 X30.372 Y82.036 E42.30238
G1 X30.398 Y81.732 E42.31659
G1 X30.43 Y81.414 E42.33147
G1 X30.562 Y80.503 E42.37433
G1 X30.691 Y79.915 E42.40237
G1 X30.803 Y79.465 E42.42396
G1 X30.883 Y79.161 E42.4386
G1 X30.97 Y78.851 E42.45359
G1 X31.257 Y77.976 E42.49647
G1 X31.493 Y77.403 E42.52532
G1 X31.713 Y76.909 E42.5505
G1 X31.826 Y76.664 E42.56307
G1 X31.936 Y76.433 E42.57498
G1 X32.367 Y75.619 E42.61787
G1 X32.717 Y75.065 E42.64838
G1 X33.019 Y74.617 E42.67354
G1 X33.21 Y74.343 E42.68909
G1 X33.365 Y74.128 E42.70144
G1 X33.935 Y73.405 E42.74431
G1 X34.347 Y72.954 E42.77275
G1 X34.711 Y72.578 E42.79712
G1 X34.946 Y72.344 E42.81256
G1 X35.148 Y72.148 E42.82567
G1 X35.835 Y71.536 E42.86851
G1 X36.284 Y71.19 E42.8949
G1 X36.679 Y70.902 E42.91767
G1 X36.974 Y70.695 E42.93445
G1 X37.232 Y70.52 E42.94896
G1 X38.015 Y70.036 E42.99183
G0 F6000 X38.225 Y70.377
G1 F1200 X38.693 Y70.133 E43.0164
G1 X39.146 Y69.911 E43.03989
G1 X39.438 Y69.774 E43.05491
G1 X39.706 Y69.653 E43.0686
G1 X40.544 Y69.318 E43.11063
G1 X41.106 Y69.14 E43.13808
G1 X41.597 Y69 E43.16185
G1 X41.863 Y68.928 E43.17468
G1 X42.148 Y68.855 E43.18838
G1 X43.032 Y68.67 E43.23044
G1 X43.613 Y68.592 E43.25773
G1 X44.089 Y68.542 E43.28002
G1 X44.411 Y68.513 E43.29507
G1 X44.698 Y68.492 E43.30847
G1 X45.277 Y68.466 E43.33546
G1 X46.142 Y68.452 E43.37574
G1 X46.307 Y68.451 E43.38343
G1 X108.63 Y68.45 E46.28545
G1 X173.793 Y68.45 E49.31971
G1 X173.941 Y68.451 E49.3266
G1 X174.629 Y68.461 E49.35864
G1 X175.203 Y68.486 E49.38539
G1 X175.654 Y68.518 E49.40645
G1 X175.967 Y68.545 E49.42108
G1 X176.31 Y68.58 E49.43713
G1 X177.204 Y68.711 E49.4792
G1 X177.739 Y68.829 E49.50471
G1 X178.189 Y68.941 E49.52631
G1 X178.473 Y69.016 E49.53998
G1 X178.784 Y69.103 E49.55502
G1 X179.642 Y69.385 E49.59708
G1 X180.193 Y69.611 E49.62481
G1 X180.686 Y69.831 E49.64995
G1 X180.914 Y69.937 E49.66165
G1 X181.145 Y70.047 E49.67357
G1 X181.943 Y70.471 E49.71565
G1 X182.458 Y70.796 E49.744
G1 X182.893 Y71.089 E49.76842
G1 X183.145 Y71.264 E49.78271
G1 X183.365 Y71.422 E49.79532
G1 X184.074 Y71.981 E49.83736
G1 X184.489 Y72.359 E49.8635
G1 X184.864 Y72.72 E49.88774
G1 X185.106 Y72.96 E49.90361
G1 X185.311 Y73.171 E49.91731
G1 X185.911 Y73.846 E49.95936
G1 X186.237 Y74.27 E49.98427
G1 X186.525 Y74.665 E50.00703
G1 X186.724 Y74.948 E50.02314
G1 X186.899 Y75.206 E50.03765
G1 X187.373 Y75.975 E50.07972
G1 X187.617 Y76.443 E50.10429
G1 X187.839 Y76.896 E50.12778
G1 X187.976 Y77.188 E50.1428
G1 X188.097 Y77.456 E50.1565
G1 X188.432 Y78.294 E50.19852
G1 X188.607 Y78.845 E50.22544
G1 X188.743 Y79.32 E50.24845
G1 X188.819 Y79.6 E50.26195
G1 X188.896 Y79.901 E50.27642
G1 X189.081 Y80.785 E50.31848
G1 X189.158 Y81.363 E50.34563
G1 X189.208 Y81.839 E50.36791
G1 X189.236 Y82.155 E50.38269
G1 X189.257 Y82.44 E50.39599
G1 X189.284 Y83.025 E50.42326
G1 X189.298 Y83.892 E50.46364
G1 X189.299 Y84.057 E50.47132
G1 X189.3 Y136.01 E52.89047
G1 X189.299 Y136.154 E52.89718
G1 X189.289 Y136.862 E52.93015
G1 X189.264 Y137.446 E52.95737
G1 X189.229 Y137.935 E52.98019
G1 X189.204 Y138.228 E52.99389
G1 X189.172 Y138.546 E53.00877
G1 X189.042 Y139.44 E53.05084
G1 X188.921 Y139.989 E53.07701
G1 X188.809 Y140.439 E53.09861
G1 X188.732 Y140.731 E53.11267
G1 X188.645 Y141.041 E53.12766
G1 X188.362 Y141.899 E53.16973
G1 X188.142 Y142.435 E53.19671
G1 X187.922 Y142.929 E53.22189
G1 X187.813 Y143.164 E53.23395
G1 X187.703 Y143.395 E53.24586
G1 X187.279 Y144.193 E53.28794
G1 X186.954 Y144.708 E53.3163
G1 X186.661 Y145.143 E53.34072
G1 X186.481 Y145.401 E53.35537
G1 X186.317 Y145.629 E53.36845
G1 X185.758 Y146.338 E53.41049
G1 X185.367 Y146.766 E53.43748
G1 X185.009 Y147.136 E53.46146
G1 X184.785 Y147.36 E53.47621
G1 X184.577 Y147.562 E53.48971
G1 X183.902 Y148.162 E53.53176
G1 X183.48 Y148.487 E53.55656
G1 X183.085 Y148.775 E53.57932
G1 X182.802 Y148.974 E53.59543
G1 X182.544 Y149.149 E53.60995
G1 X181.775 Y149.623 E53.65201
