;FLAVOR:Marlin
;TIME:6357
;Filament used: 11.9322m
;Layer height: 0.28
;MINX:27.4
;MINY:60.15
;MINZ:0.28
;MAXX:192.6
;MAXY:159.85
;MAXZ:26.04
;POSTPROCESSED
;Generated with Cura_SteamEngine 4.3.0
M140 S50
M105
M190 S50
M104 S200
M105
M109 S200
M82 ;absolute extrusion mode
M201 X500.00 Y500.00 Z100.00 E5000.00 ;Setup machine max acceleration
M203 X500.00 Y500.00 Z10.00 E50.00 ;Setup machine max feedrate
M204 P500.00 R1000.00 T500.00 ;Setup Print/Retract/Travel acceleration
M205 X8.00 Y8.00 Z0.40 E5.00 ;Setup Jerk
M220 S100 ;Reset Feedrate
M221 S100 ;Reset Flowrate

G28 ;Home

G92 E0 ;Reset Extruder
G1 Z2.0 F3000 ;Move Z Axis up
G1 X10.1 Y20 Z0.28 F5000.0 ;Move to start position
G1 X10.1 Y200.0 Z0.28 F1500.0 E15 ;Draw the first line
G1 X10.4 Y200.0 Z0.28 F5000.0 ;Move to side a little
G1 X10.4 Y20 Z0.28 F1500.0 E30 ;Draw the second line
G92 E0 ;Reset Extruder
G1 Z2.0 F3000 ;Move Z Axis up

G92 E0
G92 E0
G1 F2700 E-5
;LAYER_COUNT:93
;LAYER:0
M117 Layer 1 CE3_iot3g of 93
M107
G0 F9000 X38.292 Y63.007 Z0.28
;TYPE:SKIRT
G1 F2700 E0
G1 F1800 X38.848 Y62.716 E0.02922
G1 X39.628 Y62.335 E0.06964
G1 X39.793 Y62.256 E0.07816
G1 X40.075 Y62.124 E0.09266
G1 X40.214 Y62.061 E0.09977
G1 X40.819 Y61.788 E0.13067
G1 X41.689 Y61.439 E0.17432
G1 X42.318 Y61.238 E0.20507
G1 X43.15 Y61 E0.24536
G1 X43.334 Y60.949 E0.25426
G1 X43.622 Y60.872 E0.26814
G1 X43.753 Y60.838 E0.27444
G1 X44.414 Y60.67 E0.3062
G1 X45.332 Y60.478 E0.34987
G1 X46.025 Y60.386 E0.38242
G1 X47.16 Y60.272 E0.43554
G1 X47.445 Y60.247 E0.44886
G1 X48.132 Y60.196 E0.48093
G1 X48.767 Y60.167 E0.51053
G1 X49.625 Y60.153 E0.55049
G1 X49.804 Y60.152 E0.55883
G1 X104.4 Y60.15 E3.10104
G1 X170.293 Y60.15 E6.1693
G1 X170.455 Y60.151 E6.17684
G1 X171.132 Y60.161 E6.20837
G1 X171.755 Y60.188 E6.23741
G1 X172.552 Y60.245 E6.27461
G1 X172.716 Y60.258 E6.28227
G1 X173.097 Y60.291 E6.30008
G1 X173.249 Y60.305 E6.30719
G1 X173.905 Y60.371 E6.33789
G1 X174.833 Y60.505 E6.38155
G1 X175.512 Y60.655 E6.41393
G1 X176.626 Y60.938 E6.46745
G1 X176.9 Y61.011 E6.48065
G1 X177.564 Y61.198 E6.51277
G1 X178.455 Y61.49 E6.55643
G1 X179.104 Y61.759 E6.58915
G1 X180.175 Y62.242 E6.64385
G1 X180.415 Y62.353 E6.65617
G1 X181.023 Y62.645 E6.68757
G1 X181.851 Y63.087 E6.73128
G1 X182.419 Y63.446 E6.76257
G1 X183.128 Y63.925 E6.80241
G1 X183.263 Y64.018 E6.81004
G1 X183.544 Y64.214 E6.82599
G1 X183.67 Y64.303 E6.83318
G1 X184.196 Y64.681 E6.86334
G1 X184.934 Y65.261 E6.90705
G1 X185.422 Y65.705 E6.93777
G1 X186.021 Y66.284 E6.97656
G1 X186.154 Y66.415 E6.98525
G1 X186.391 Y66.652 E7.00086
G1 X186.496 Y66.758 E7.00781
G1 X186.967 Y67.242 E7.03925
G1 X187.592 Y67.942 E7.08295
G1 X188.007 Y68.481 E7.11463
G1 X188.679 Y69.413 E7.16813
G1 X188.855 Y69.665 E7.18244
G1 X189.249 Y70.245 E7.21509
G1 X189.743 Y71.042 E7.25875
G1 X190.055 Y71.641 E7.2902
G1 X190.568 Y72.703 E7.34512
G1 X190.687 Y72.959 E7.35826
G1 X190.959 Y73.561 E7.38902
G1 X191.309 Y74.431 E7.43269
G1 X191.511 Y75.065 E7.46367
G1 X191.749 Y75.897 E7.50397
G1 X191.802 Y76.088 E7.5132
G1 X191.878 Y76.373 E7.52693
G1 X191.908 Y76.49 E7.53256
G1 X192.078 Y77.157 E7.56461
G1 X192.271 Y78.075 E7.60829
G1 X192.364 Y78.775 E7.64117
G1 X192.478 Y79.91 E7.69429
G1 X192.503 Y80.192 E7.70747
G1 X192.554 Y80.877 E7.73946
G1 X192.583 Y81.515 E7.76919
G1 X192.597 Y82.375 E7.80924
G1 X192.598 Y82.554 E7.81758
G1 X192.6 Y137.541 E10.378
G1 X192.599 Y137.7 E10.38541
G1 X192.589 Y138.39 E10.41754
G1 X192.562 Y139.013 E10.44658
G1 X192.509 Y139.757 E10.48131
G1 X192.495 Y139.934 E10.48958
G1 X192.458 Y140.357 E10.50935
G1 X192.445 Y140.499 E10.51599
G1 X192.379 Y141.155 E10.54669
G1 X192.245 Y142.083 E10.59035
G1 X192.095 Y142.762 E10.62273
G1 X191.812 Y143.876 E10.67625
G1 X191.738 Y144.154 E10.68964
G1 X191.551 Y144.817 E10.72172
G1 X191.258 Y145.708 E10.76539
G1 X190.993 Y146.35 E10.79774
G1 X190.51 Y147.422 E10.85249
G1 X190.397 Y147.665 E10.86496
G1 X190.105 Y148.273 E10.89637
G1 X189.663 Y149.101 E10.94008
G1 X189.304 Y149.669 E10.97136
G1 X188.825 Y150.378 E11.01121
G1 X188.732 Y150.513 E11.01884
G1 X188.536 Y150.794 E11.03479
G1 X188.447 Y150.92 E11.04198
G1 X188.069 Y151.446 E11.07214
G1 X187.489 Y152.184 E11.11584
G1 X187.045 Y152.672 E11.14656
G1 X186.466 Y153.271 E11.18536
G1 X186.335 Y153.404 E11.19405
G1 X186.098 Y153.641 E11.20966
G1 X185.992 Y153.746 E11.2166
G1 X185.508 Y154.217 E11.24805
G1 X184.808 Y154.842 E11.29175
G1 X184.269 Y155.257 E11.32342
G1 X183.337 Y155.929 E11.37693
G1 X183.085 Y156.105 E11.39124
G1 X182.505 Y156.499 E11.42389
G1 X181.708 Y156.993 E11.46755
G1 X181.155 Y157.282 E11.4966
G1 X180.394 Y157.654 E11.53605
G1 X180.229 Y157.733 E11.54457
G1 X179.928 Y157.874 E11.56004
G1 X179.786 Y157.939 E11.56731
G1 X179.181 Y158.212 E11.59822
G1 X178.311 Y158.561 E11.64187
G1 X177.682 Y158.762 E11.67262
G1 X176.864 Y158.996 E11.71224
G1 X176.684 Y159.046 E11.72093
G1 X176.389 Y159.125 E11.73515
G1 X176.257 Y159.159 E11.7415
G1 X175.589 Y159.329 E11.7736
G1 X174.671 Y159.522 E11.81728
G1 X173.975 Y159.614 E11.84997
G1 X172.84 Y159.728 E11.90309
G1 X172.563 Y159.752 E11.91603
G1 X171.829 Y159.807 E11.95031
G1 X171.199 Y159.836 E11.97967
G1 X170.51 Y159.848 E12.01176
G1 X170.318 Y159.85 E12.0207
G1 X49.707 Y159.85 E17.63685
G1 X49.545 Y159.849 E17.6444
G1 X48.868 Y159.839 E17.67593
G1 X48.245 Y159.812 E17.70496
G1 X47.448 Y159.755 E17.74217
G1 X47.284 Y159.742 E17.74983
G1 X46.903 Y159.709 E17.76764
G1 X46.751 Y159.695 E17.77474
G1 X46.095 Y159.629 E17.80544
G1 X45.167 Y159.495 E17.8491
G1 X44.488 Y159.345 E17.88148
G1 X43.374 Y159.062 E17.935
G1 X43.1 Y158.989 E17.94821
G1 X42.436 Y158.802 E17.98033
G1 X41.545 Y158.51 E18.02399
G1 X40.897 Y158.242 E18.05664
G1 X39.819 Y157.756 E18.1117
G1 X39.573 Y157.641 E18.12435
G1 X38.972 Y157.352 E18.1554
G1 X38.145 Y156.91 E18.19906
G1 X37.581 Y156.554 E18.23012
G1 X36.872 Y156.075 E18.26996
G1 X36.735 Y155.98 E18.27772
G1 X36.447 Y155.779 E18.29408
G1 X36.322 Y155.691 E18.3012
G1 X35.803 Y155.318 E18.33096
G1 X35.066 Y154.739 E18.3746
G1 X34.578 Y154.295 E18.40532
G1 X33.979 Y153.716 E18.44411
G1 X33.846 Y153.585 E18.4528
G1 X33.609 Y153.348 E18.46841
G1 X33.504 Y153.242 E18.47536
G1 X33.033 Y152.758 E18.50681
G1 X32.408 Y152.058 E18.5505
G1 X31.993 Y151.519 E18.58218
G1 X31.321 Y150.587 E18.63568
G1 X31.145 Y150.335 E18.64999
G1 X30.751 Y149.755 E18.68264
G1 X30.257 Y148.958 E18.7263
G1 X29.945 Y148.359 E18.75775
G1 X29.432 Y147.297 E18.81267
G1 X29.311 Y147.036 E18.82607
G1 X29.038 Y146.431 E18.85697
G1 X28.689 Y145.561 E18.90062
G1 X28.488 Y144.932 E18.93137
G1 X28.25 Y144.1 E18.97167
G1 X28.196 Y143.902 E18.98122
G1 X28.121 Y143.62 E18.99481
G1 X28.092 Y143.51 E19.00011
G1 X27.922 Y142.843 E19.03216
G1 X27.729 Y141.925 E19.07584
G1 X27.636 Y141.225 E19.10872
G1 X27.522 Y140.09 E19.16184
G1 X27.498 Y139.813 E19.17478
G1 X27.441 Y139.052 E19.21032
G1 X27.413 Y138.468 E19.23754
G1 X27.403 Y138.006 E19.25906
G1 X27.4 Y137.768 E19.27014
G1 X27.4 Y82.457 E21.84566
G1 X27.401 Y82.294 E21.85325
G1 X27.411 Y81.618 E21.88473
G1 X27.438 Y80.997 E21.91367
G1 X27.495 Y80.199 E21.95092
G1 X27.508 Y80.034 E21.95863
G1 X27.541 Y79.653 E21.97644
G1 X27.555 Y79.501 E21.98354
G1 X27.621 Y78.845 E22.01425
G1 X27.755 Y77.917 E22.0579
G1 X27.905 Y77.238 E22.09028
G1 X28.188 Y76.124 E22.1438
G1 X28.262 Y75.846 E22.1572
G1 X28.449 Y75.183 E22.18928
G1 X28.742 Y74.292 E22.23295
G1 X29.007 Y73.65 E22.26529
G1 X29.49 Y72.578 E22.32004
G1 X29.603 Y72.335 E22.33252
G1 X29.895 Y71.727 E22.36393
G1 X30.337 Y70.899 E22.40763
G1 X30.696 Y70.331 E22.43892
G1 X31.175 Y69.622 E22.47876
G1 X31.268 Y69.487 E22.4864
G1 X31.464 Y69.206 E22.50235
G1 X31.553 Y69.08 E22.50953
G1 X31.931 Y68.554 E22.53969
G1 X32.511 Y67.816 E22.5834
G1 X32.955 Y67.328 E22.61412
G1 X33.534 Y66.729 E22.65291
G1 X33.665 Y66.596 E22.66161
G1 X33.902 Y66.359 E22.67721
G1 X34.008 Y66.254 E22.68416
G1 X34.492 Y65.783 E22.71561
G1 X35.192 Y65.158 E22.7593
G1 X35.731 Y64.743 E22.79098
G1 X36.663 Y64.071 E22.84448
G1 X36.915 Y63.895 E22.85879
G1 X37.495 Y63.501 E22.89144
G1 X38.292 Y63.007 E22.93511
G0 F9000 X38.503 Y63.348
G1 F1800 X39.024 Y63.076 E22.96247
G1 X39.804 Y62.695 E23.00289
G1 X39.962 Y62.619 E23.01106
G1 X40.244 Y62.487 E23.02556
G1 X40.378 Y62.425 E23.03243
G1 X40.983 Y62.152 E23.06334
G1 X41.838 Y61.81 E23.10622
G1 X42.428 Y61.623 E23.13504
G1 X43.26 Y61.385 E23.17533
G1 X43.437 Y61.336 E23.18388
G1 X43.725 Y61.259 E23.19777
G1 X43.852 Y61.226 E23.20388
G1 X44.513 Y61.058 E23.23563
G1 X45.414 Y60.87 E23.27849
G1 X46.065 Y60.784 E23.30907
G1 X47.2 Y60.67 E23.36218
G1 X47.474 Y60.646 E23.37499
G1 X48.161 Y60.595 E23.40707
G1 X48.773 Y60.567 E23.4356
G1 X49.631 Y60.553 E23.47555
G1 X49.804 Y60.552 E23.48361
G1 X104.4 Y60.55 E26.02583
G1 X170.293 Y60.55 E29.09408
G1 X170.45 Y60.551 E29.10139
G1 X171.127 Y60.561 E29.13292
G1 X171.726 Y60.587 E29.16084
G1 X172.523 Y60.644 E29.19805
G1 X172.682 Y60.657 E29.20547
G1 X173.063 Y60.69 E29.22328
G1 X173.209 Y60.703 E29.23011
G1 X173.865 Y60.769 E29.26081
G1 X174.776 Y60.901 E29.30367
G1 X175.414 Y61.042 E29.33409
G1 X176.528 Y61.325 E29.38761
G1 X176.791 Y61.396 E29.4003
G1 X177.455 Y61.583 E29.43242
G1 X178.33 Y61.871 E29.47531
G1 X178.94 Y62.123 E29.50605
G1 X180.011 Y62.606 E29.56075
G1 X180.242 Y62.714 E29.57263
G1 X180.85 Y63.006 E29.60404
G1 X181.662 Y63.44 E29.64691
G1 X182.195 Y63.778 E29.6763
G1 X182.904 Y64.257 E29.71614
G1 X183.034 Y64.346 E29.72347
G1 X183.315 Y64.542 E29.73943
G1 X183.437 Y64.628 E29.74638
G1 X183.963 Y65.006 E29.77654
G1 X184.686 Y65.575 E29.81938
G1 X185.144 Y65.993 E29.84825
G1 X185.743 Y66.572 E29.88704
G1 X185.871 Y66.698 E29.89541
G1 X186.21 Y67.037 E29.91773
G1 X186.681 Y67.521 E29.94918
G1 X187.293 Y68.208 E29.99202
G1 X187.682 Y68.715 E30.02178
G1 X188.354 Y69.647 E30.07528
G1 X188.524 Y69.89 E30.08909
G1 X188.918 Y70.47 E30.12174
G1 X189.402 Y71.253 E30.1646
G1 X189.695 Y71.815 E30.19411
G1 X190.208 Y72.877 E30.24903
G1 X190.323 Y73.123 E30.26168
G1 X190.595 Y73.725 E30.29244
G1 X190.937 Y74.58 E30.33532
G1 X191.126 Y75.175 E30.36439
G1 X191.364 Y76.007 E30.40468
G1 X191.415 Y76.191 E30.41357
G1 X191.491 Y76.476 E30.42731
G1 X191.521 Y76.589 E30.43275
G1 X191.691 Y77.256 E30.4648
G1 X191.879 Y78.157 E30.50766
G1 X191.966 Y78.815 E30.53857
G1 X192.08 Y79.95 E30.59168
G1 X192.104 Y80.222 E30.6044
G1 X192.155 Y80.907 E30.63638
G1 X192.183 Y81.521 E30.665
G1 X192.197 Y82.381 E30.70505
G1 X192.198 Y82.554 E30.71311
G1 X192.2 Y137.541 E33.27353
G1 X192.199 Y137.695 E33.2807
G1 X192.189 Y138.385 E33.31284
G1 X192.163 Y138.984 E33.34075
G1 X192.11 Y139.728 E33.37549
G1 X192.097 Y139.899 E33.38347
G1 X192.06 Y140.322 E33.40324
G1 X192.047 Y140.459 E33.40965
G1 X191.981 Y141.115 E33.44035
G1 X191.849 Y142.026 E33.48321
G1 X191.708 Y142.664 E33.51364
G1 X191.425 Y143.778 E33.56716
G1 X191.353 Y144.045 E33.58004
G1 X191.166 Y144.708 E33.61211
G1 X190.878 Y145.583 E33.65501
G1 X190.628 Y146.185 E33.68536
G1 X190.145 Y147.257 E33.74011
G1 X190.036 Y147.492 E33.75217
G1 X189.744 Y148.1 E33.78358
G1 X189.31 Y148.912 E33.82645
G1 X188.972 Y149.445 E33.85584
G1 X188.493 Y150.154 E33.89568
G1 X188.404 Y150.284 E33.90302
G1 X188.208 Y150.565 E33.91897
G1 X188.122 Y150.687 E33.92592
G1 X187.744 Y151.213 E33.95608
G1 X187.175 Y151.936 E33.99892
G1 X186.757 Y152.394 E34.0278
G1 X186.178 Y152.993 E34.06659
G1 X186.052 Y153.121 E34.07495
G1 X185.713 Y153.46 E34.09728
G1 X185.229 Y153.931 E34.12872
G1 X184.542 Y154.543 E34.17156
G1 X184.035 Y154.932 E34.20132
G1 X183.103 Y155.604 E34.25482
G1 X182.86 Y155.774 E34.26863
G1 X182.28 Y156.168 E34.30128
G1 X181.497 Y156.652 E34.34414
G1 X180.979 Y156.923 E34.37137
G1 X180.218 Y157.295 E34.41081
G1 X180.06 Y157.371 E34.41897
G1 X179.759 Y157.512 E34.43445
G1 X179.622 Y157.575 E34.44147
G1 X179.017 Y157.848 E34.47238
G1 X178.162 Y158.19 E34.51526
G1 X177.572 Y158.377 E34.54408
G1 X176.754 Y158.611 E34.58369
G1 X176.581 Y158.659 E34.59205
G1 X176.286 Y158.738 E34.60627
G1 X176.158 Y158.772 E34.61244
G1 X175.49 Y158.942 E34.64454
G1 X174.589 Y159.13 E34.6874
G1 X173.935 Y159.216 E34.71811
G1 X172.8 Y159.33 E34.77123
G1 X172.533 Y159.353 E34.78371
G1 X171.799 Y159.408 E34.81798
G1 X171.192 Y159.436 E34.84627
G1 X170.503 Y159.448 E34.87836
G1 X170.318 Y159.45 E34.88698
G1 X49.707 Y159.45 E40.50313
G1 X49.55 Y159.449 E40.51044
G1 X48.873 Y159.439 E40.54197
G1 X48.274 Y159.413 E40.56989
G1 X47.477 Y159.356 E40.60709
G1 X47.318 Y159.343 E40.61452
G1 X46.937 Y159.31 E40.63233
G1 X46.791 Y159.297 E40.63915
G1 X46.135 Y159.231 E40.66985
G1 X45.224 Y159.099 E40.71272
G1 X44.586 Y158.958 E40.74314
G1 X43.472 Y158.675 E40.79666
G1 X43.209 Y158.604 E40.80935
G1 X42.545 Y158.417 E40.84147
G1 X41.67 Y158.129 E40.88436
G1 X41.061 Y157.877 E40.91505
G1 X39.983 Y157.391 E40.97011
G1 X39.746 Y157.281 E40.98228
G1 X39.145 Y156.992 E41.01333
G1 X38.334 Y156.557 E41.05619
G1 X37.805 Y156.222 E41.08534
G1 X37.096 Y155.743 E41.12518
G1 X36.963 Y155.652 E41.13269
G1 X36.675 Y155.451 E41.14904
G1 X36.556 Y155.367 E41.15582
G1 X36.037 Y154.994 E41.18558
G1 X35.313 Y154.424 E41.22849
G1 X34.856 Y154.007 E41.2573
G1 X34.257 Y153.428 E41.29609
G1 X34.129 Y153.302 E41.30445
G1 X33.79 Y152.963 E41.32678
G1 X33.319 Y152.479 E41.35823
G1 X32.707 Y151.792 E41.40107
G1 X32.318 Y151.285 E41.43082
G1 X31.646 Y150.353 E41.48433
G1 X31.476 Y150.11 E41.49813
G1 X31.082 Y149.53 E41.53078
G1 X30.598 Y148.747 E41.57365
G1 X30.305 Y148.185 E41.60316
G1 X29.792 Y147.123 E41.65808
G1 X29.675 Y146.872 E41.67097
G1 X29.402 Y146.267 E41.70188
G1 X29.06 Y145.412 E41.74476
G1 X28.873 Y144.822 E41.77358
G1 X28.635 Y143.99 E41.81387
G1 X28.582 Y143.799 E41.8231
G1 X28.507 Y143.517 E41.83669
G1 X28.479 Y143.411 E41.8418
G1 X28.309 Y142.744 E41.87385
G1 X28.121 Y141.843 E41.91671
G1 X28.034 Y141.185 E41.94761
G1 X27.92 Y140.05 E42.00073
G1 X27.897 Y139.783 E42.01321
G1 X27.84 Y139.022 E42.04874
G1 X27.812 Y138.459 E42.07499
G1 X27.802 Y137.997 E42.09651
G1 X27.8 Y137.768 E42.10717
G1 X27.8 Y82.457 E44.68268
G1 X27.801 Y82.3 E44.68999
G1 X27.811 Y81.624 E44.72147
G1 X27.837 Y81.026 E44.74935
G1 X27.894 Y80.228 E44.7866
G1 X27.907 Y80.068 E44.79407
G1 X27.94 Y79.687 E44.81188
G1 X27.953 Y79.541 E44.81871
G1 X28.019 Y78.885 E44.84941
G1 X28.151 Y77.974 E44.89227
G1 X28.292 Y77.336 E44.92269
G1 X28.575 Y76.222 E44.97621
G1 X28.647 Y75.955 E44.98909
G1 X28.834 Y75.292 E45.02117
G1 X29.122 Y74.417 E45.06406
G1 X29.372 Y73.815 E45.09441
G1 X29.855 Y72.743 E45.14916
G1 X29.964 Y72.508 E45.16123
G1 X30.256 Y71.9 E45.19263
G1 X30.69 Y71.088 E45.2355
G1 X31.028 Y70.555 E45.26489
G1 X31.507 Y69.846 E45.30473
G1 X31.596 Y69.716 E45.31207
G1 X31.792 Y69.435 E45.32802
G1 X31.878 Y69.313 E45.33497
G1 X32.256 Y68.787 E45.36514
G1 X32.825 Y68.064 E45.40798
G1 X33.243 Y67.606 E45.43685
G1 X33.822 Y67.007 E45.47564
G1 X33.948 Y66.879 E45.48401
G1 X34.287 Y66.54 E45.50633
G1 X34.771 Y66.069 E45.53778
G1 X35.458 Y65.457 E45.58062
G1 X35.965 Y65.068 E45.61037
G1 X36.897 Y64.396 E45.66388
G1 X37.14 Y64.226 E45.67769
G1 X37.72 Y63.832 E45.71034
G1 X38.503 Y63.348 E45.7532
G0 F9000 X38.713 Y63.689
G1 F1800 X39.199 Y63.435 E45.77873
G1 X39.979 Y63.054 E45.81915
G1 X40.132 Y62.981 E45.82705
G1 X40.414 Y62.849 E45.84155
G1 X40.543 Y62.79 E45.84815
G1 X41.148 Y62.517 E45.87906
G1 X41.987 Y62.182 E45.92112
G1 X42.538 Y62.007 E45.94804
G1 X43.37 Y61.769 E45.98834
G1 X43.54 Y61.722 E45.99655
G1 X43.828 Y61.645 E46.01043
G1 X43.95 Y61.613 E46.01631
G1 X44.611 Y61.445 E46.04806
G1 X45.496 Y61.262 E46.09015
G1 X46.105 Y61.182 E46.11875
G1 X47.24 Y61.068 E46.17186
G1 X47.504 Y61.045 E46.1842
