;FLAVOR:Marlin
;TIME:7209
;Filament used: 10.4306m
;Layer height: 0.28
;MINX:29.9
;MINY:67.65
;MINZ:0.28
;MAXX:190.1
;MAXY:152.35
;MAXZ:24.08
;Generated with Cura_SteamEngine 4.4.1
M140 S60
M105
M190 S60
M104 S200
M105
M109 S200
M82 ;absolute extrusion mode
M201 X500.00 Y500.00 Z100.00 E5000.00 ;Setup machine max acceleration
M203 X500.00 Y500.00 Z10.00 E50.00 ;Setup machine max feedrate
M204 P500.00 R1000.00 T500.00 ;Setup Print/Retract/Travel acceleration
M205 X8.00 Y8.00 Z0.40 E5.00 ;Setup Jerk
M220 S100 ;Reset Feedrate
M221 S100 ;Reset Flowrate

G28 ;Home

G92 E0 ;Reset Extruder
G1 Z2.0 F3000 ;Move Z Axis up
G1 X10.1 Y20 Z0.28 F5000.0 ;Move to start position
G1 X10.1 Y200.0 Z0.28 F1500.0 E15 ;Draw the first line
G1 X10.4 Y200.0 Z0.28 F5000.0 ;Move to side a little
G1 X10.4 Y20 Z0.28 F1500.0 E30 ;Draw the second line
G92 E0 ;Reset Extruder
G1 Z2.0 F3000 ;Move Z Axis up

G92 E0
G92 E0
G1 F1500 E-6.5
;LAYER_COUNT:86
;LAYER:0
M107
G0 F6000 X37.803 Y69.696 Z0.28
;TYPE:SKIRT
G1 F1500 E0
G1 F1200 X38.359 Y69.404 E0.02924
G1 X38.801 Y69.188 E0.05215
G1 X39.088 Y69.053 E0.06692
G1 X39.346 Y68.936 E0.08011
G1 X40.216 Y68.585 E0.12379
G1 X40.874 Y68.375 E0.15596
G1 X41.439 Y68.214 E0.18331
G1 X41.708 Y68.141 E0.19629
G1 X41.933 Y68.083 E0.20711
G1 X42.851 Y67.888 E0.25081
G1 X43.556 Y67.792 E0.28394
G1 X44.053 Y67.741 E0.3072
G1 X44.395 Y67.712 E0.32319
G1 X44.69 Y67.691 E0.33696
G1 X45.297 Y67.664 E0.36525
G1 X46.054 Y67.652 E0.4005
G1 X46.228 Y67.651 E0.40861
G1 X103.89 Y67.65 E3.09359
G1 X173.793 Y67.65 E6.34857
G1 X173.956 Y67.651 E6.35616
G1 X174.631 Y67.661 E6.38759
G1 X175.252 Y67.688 E6.41653
G1 X175.728 Y67.722 E6.43876
G1 X176.032 Y67.748 E6.45296
G1 X176.364 Y67.781 E6.4685
G1 X177.292 Y67.913 E6.51214
G1 X177.954 Y68.058 E6.5437
G1 X178.464 Y68.186 E6.56819
G1 X178.747 Y68.261 E6.58182
G1 X179.001 Y68.332 E6.5941
G1 X179.893 Y68.623 E6.63779
G1 X180.548 Y68.892 E6.67076
G1 X181.031 Y69.109 E6.69542
G1 X181.278 Y69.224 E6.7081
G1 X181.52 Y69.34 E6.7206
G1 X182.347 Y69.781 E6.76424
G1 X182.924 Y70.145 E6.79601
G1 X183.365 Y70.443 E6.82079
G1 X183.627 Y70.625 E6.83565
G1 X183.844 Y70.781 E6.84809
G1 X184.581 Y71.361 E6.89176
G1 X185.071 Y71.807 E6.92261
G1 X185.438 Y72.162 E6.94639
G1 X185.661 Y72.384 E6.96104
G1 X185.866 Y72.594 E6.97471
G1 X186.492 Y73.293 E7.0184
G1 X186.89 Y73.807 E7.04867
G1 X187.197 Y74.229 E7.07297
G1 X187.391 Y74.505 E7.08868
G1 X187.543 Y74.728 E7.10124
G1 X188.038 Y75.524 E7.14489
G1 X188.341 Y76.101 E7.17524
G1 X188.58 Y76.591 E7.20062
G1 X188.73 Y76.911 E7.21708
G1 X188.839 Y77.154 E7.22948
G1 X189.186 Y78.025 E7.27314
G1 X189.381 Y78.642 E7.30327
G1 X189.528 Y79.158 E7.32825
G1 X189.611 Y79.467 E7.34315
G1 X189.679 Y79.735 E7.35603
G1 X189.871 Y80.653 E7.3997
G1 X189.959 Y81.309 E7.43052
G1 X190.002 Y81.725 E7.44999
G1 X190.029 Y82.035 E7.46448
G1 X190.054 Y82.369 E7.48008
G1 X190.084 Y83.009 E7.50991
G1 X190.098 Y83.862 E7.54963
G1 X190.099 Y84.043 E7.55806
G1 X190.1 Y136.042 E9.97935
G1 X190.099 Y136.205 E9.98694
G1 X190.089 Y136.881 E10.01843
G1 X190.062 Y137.503 E10.04742
G1 X190.027 Y137.992 E10.07024
G1 X190 Y138.302 E10.08473
G1 X189.969 Y138.612 E10.09924
G1 X189.836 Y139.54 E10.14289
G1 X189.693 Y140.195 E10.17411
G1 X189.567 Y140.697 E10.19821
G1 X189.498 Y140.957 E10.21074
G1 X189.424 Y141.224 E10.22364
G1 X189.136 Y142.116 E10.26728
G1 X188.868 Y142.772 E10.30028
G1 X188.642 Y143.278 E10.32609
G1 X188.508 Y143.567 E10.34092
G1 X188.402 Y143.787 E10.35229
G1 X187.959 Y144.613 E10.39594
G1 X187.607 Y145.169 E10.42658
G1 X187.299 Y145.625 E10.4522
G1 X187.129 Y145.87 E10.46609
G1 X186.988 Y146.067 E10.47737
G1 X186.41 Y146.806 E10.52105
G1 X185.974 Y147.288 E10.55132
G1 X185.603 Y147.674 E10.57625
G1 X185.352 Y147.927 E10.59284
G1 X185.151 Y148.123 E10.60591
G1 X184.452 Y148.748 E10.64958
G1 X183.931 Y149.15 E10.68022
G1 X183.552 Y149.425 E10.70202
G1 X183.276 Y149.619 E10.71773
G1 X182.995 Y149.81 E10.73355
G1 X182.197 Y150.304 E10.77725
G1 X181.648 Y150.592 E10.80612
G1 X181.215 Y150.804 E10.82857
G1 X180.904 Y150.951 E10.84459
G1 X180.636 Y151.072 E10.85828
G1 X179.766 Y151.421 E10.90193
G1 X179.129 Y151.623 E10.93305
G1 X178.565 Y151.784 E10.96036
G1 X178.292 Y151.859 E10.97354
G1 X178.067 Y151.917 E10.98436
G1 X177.149 Y152.112 E11.02806
G1 X176.444 Y152.208 E11.06119
G1 X175.947 Y152.259 E11.08445
G1 X175.605 Y152.288 E11.10044
G1 X175.31 Y152.309 E11.11421
G1 X174.704 Y152.336 E11.14245
G1 X173.948 Y152.348 E11.17766
G1 X173.773 Y152.349 E11.18581
G1 X91.965 Y152.35 E14.99513
G1 X46.207 Y152.35 E17.12582
G1 X46.047 Y152.349 E17.13327
G1 X45.359 Y152.339 E17.16531
G1 X44.74 Y152.312 E17.19416
G1 X44.289 Y152.28 E17.21521
G1 X43.957 Y152.252 E17.23072
G1 X43.622 Y152.218 E17.2464
G1 X42.694 Y152.083 E17.29007
G1 X42.055 Y151.943 E17.32053
G1 X41.553 Y151.817 E17.34463
G1 X41.31 Y151.753 E17.35633
G1 X41.045 Y151.68 E17.36913
G1 X40.152 Y151.393 E17.41281
G1 X39.477 Y151.117 E17.44676
G1 X38.967 Y150.889 E17.47278
G1 X38.676 Y150.754 E17.48771
G1 X38.448 Y150.644 E17.4995
G1 X37.622 Y150.201 E17.54315
G1 X37.064 Y149.848 E17.57389
G1 X36.659 Y149.574 E17.59666
G1 X36.396 Y149.39 E17.61161
G1 X36.146 Y149.21 E17.62595
G1 X35.409 Y148.63 E17.66962
G1 X34.923 Y148.188 E17.70021
G1 X34.551 Y147.828 E17.72432
G1 X34.325 Y147.603 E17.73917
G1 X34.129 Y147.402 E17.75224
G1 X33.504 Y146.703 E17.7959
G1 X33.106 Y146.188 E17.82621
G1 X32.795 Y145.76 E17.85084
G1 X32.606 Y145.492 E17.86611
G1 X32.458 Y145.275 E17.87834
G1 X31.963 Y144.478 E17.92203
G1 X31.657 Y143.893 E17.95277
G1 X31.413 Y143.392 E17.97872
G1 X31.261 Y143.067 E17.99543
G1 X31.155 Y142.83 E18.00752
G1 X30.809 Y141.958 E18.0512
G1 X30.618 Y141.355 E18.08065
G1 X30.476 Y140.857 E18.10477
G1 X30.397 Y140.565 E18.11885
G1 X30.328 Y140.295 E18.13183
G1 X30.134 Y139.377 E18.17552
G1 X30.042 Y138.687 E18.20793
G1 X29.991 Y138.187 E18.23133
G1 X29.963 Y137.867 E18.24629
G1 X29.94 Y137.55 E18.26109
G1 X29.913 Y136.945 E18.28929
G1 X29.902 Y136.312 E18.31877
G1 X29.9 Y136.121 E18.32767
G1 X29.9 Y83.957 E20.75664
G1 X29.901 Y83.797 E20.76409
G1 X29.911 Y83.109 E20.79613
G1 X29.938 Y82.49 E20.82498
G1 X29.97 Y82.039 E20.84603
G1 X29.998 Y81.707 E20.86155
G1 X30.032 Y81.372 E20.87723
G1 X30.167 Y80.444 E20.92089
G1 X30.307 Y79.805 E20.95135
G1 X30.433 Y79.303 E20.97545
G1 X30.5 Y79.049 E20.98769
G1 X30.573 Y78.785 E21.00044
G1 X30.861 Y77.893 E21.04409
G1 X31.13 Y77.235 E21.07719
G1 X31.358 Y76.724 E21.10324
G1 X31.496 Y76.426 E21.11853
G1 X31.606 Y76.198 E21.13032
G1 X32.049 Y75.372 E21.17397
G1 X32.402 Y74.814 E21.20471
G1 X32.697 Y74.378 E21.22922
G1 X32.865 Y74.137 E21.2429
G1 X33.024 Y73.915 E21.25562
G1 X33.602 Y73.176 E21.29931
G1 X34.072 Y72.66 E21.33181
G1 X34.43 Y72.291 E21.35575
G1 X34.664 Y72.058 E21.37112
G1 X34.868 Y71.86 E21.38436
G1 X35.568 Y71.236 E21.42802
G1 X36.069 Y70.85 E21.45747
G1 X36.448 Y70.575 E21.47928
G1 X36.724 Y70.381 E21.49499
G1 X37.005 Y70.19 E21.51081
G1 X37.803 Y69.696 E21.55451
G0 F6000 X38.013 Y70.036
G1 F1200 X38.535 Y69.763 E21.58194
G1 X38.977 Y69.547 E21.60485
G1 X39.253 Y69.417 E21.61905
G1 X39.511 Y69.3 E21.63224
G1 X40.365 Y68.957 E21.6751
G1 X40.984 Y68.76 E21.70535
G1 X41.549 Y68.599 E21.7327
G1 X41.808 Y68.529 E21.74519
G1 X42.033 Y68.471 E21.75601
G1 X42.934 Y68.28 E21.7989
G1 X43.597 Y68.19 E21.83006
G1 X44.094 Y68.139 E21.85332
G1 X44.423 Y68.111 E21.8687
G1 X44.718 Y68.09 E21.88247
G1 X45.303 Y68.064 E21.90973
G1 X46.06 Y68.052 E21.94499
G1 X46.228 Y68.051 E21.95281
G1 X103.89 Y68.05 E24.63779
G1 X173.793 Y68.05 E27.89277
G1 X173.95 Y68.051 E27.90008
G1 X174.625 Y68.061 E27.93152
G1 X175.223 Y68.087 E27.95939
G1 X175.699 Y68.121 E27.98161
G1 X175.992 Y68.146 E27.9953
G1 X176.324 Y68.179 E28.01084
G1 X177.236 Y68.31 E28.05374
G1 X177.856 Y68.446 E28.0833
G1 X178.366 Y68.574 E28.10778
G1 X178.64 Y68.646 E28.12097
G1 X178.894 Y68.717 E28.13325
G1 X179.769 Y69.003 E28.17612
G1 X180.384 Y69.257 E28.2071
G1 X180.867 Y69.474 E28.23176
G1 X181.105 Y69.584 E28.24396
G1 X181.347 Y69.7 E28.25646
G1 X182.159 Y70.134 E28.29933
G1 X182.7 Y70.476 E28.32914
G1 X183.141 Y70.774 E28.35392
G1 X183.393 Y70.95 E28.36823
G1 X183.61 Y71.106 E28.38068
G1 X184.334 Y71.676 E28.42358
G1 X184.793 Y72.094 E28.45249
G1 X185.16 Y72.449 E28.47627
G1 X185.375 Y72.664 E28.49042
G1 X185.58 Y72.874 E28.50409
G1 X186.194 Y73.56 E28.54696
G1 X186.567 Y74.042 E28.57534
G1 X186.874 Y74.464 E28.59964
G1 X187.061 Y74.73 E28.61478
G1 X187.213 Y74.953 E28.62735
G1 X187.698 Y75.735 E28.67019
G1 X187.981 Y76.276 E28.69862
G1 X188.22 Y76.766 E28.72401
G1 X188.365 Y77.075 E28.7399
G1 X188.474 Y77.318 E28.7523
G1 X188.814 Y78.173 E28.79515
G1 X188.996 Y78.752 E28.82341
G1 X189.143 Y79.268 E28.84839
G1 X189.223 Y79.565 E28.86272
G1 X189.291 Y79.833 E28.87559
G1 X189.479 Y80.734 E28.91845
G1 X189.561 Y81.35 E28.94738
G1 X189.604 Y81.766 E28.96686
G1 X189.63 Y82.065 E28.98083
G1 X189.655 Y82.399 E28.99643
G1 X189.684 Y83.016 E29.02519
G1 X189.698 Y83.869 E29.06492
G1 X189.699 Y84.043 E29.07302
G1 X189.7 Y136.042 E31.49431
G1 X189.699 Y136.199 E31.50162
G1 X189.689 Y136.875 E31.5331
G1 X189.663 Y137.475 E31.56107
G1 X189.628 Y137.964 E31.58389
G1 X189.602 Y138.262 E31.59782
G1 X189.571 Y138.572 E31.61233
G1 X189.44 Y139.483 E31.65519
G1 X189.305 Y140.098 E31.6845
G1 X189.179 Y140.6 E31.70861
G1 X189.113 Y140.85 E31.72064
G1 X189.039 Y141.117 E31.73355
G1 X188.755 Y141.993 E31.77643
G1 X188.502 Y142.609 E31.80744
G1 X188.276 Y143.115 E31.83324
G1 X188.147 Y143.393 E31.84751
G1 X188.041 Y143.613 E31.85888
G1 X187.606 Y144.424 E31.90173
G1 X187.276 Y144.945 E31.93045
G1 X186.968 Y145.401 E31.95607
G1 X186.804 Y145.637 E31.96946
G1 X186.663 Y145.834 E31.98074
G1 X186.095 Y146.559 E32.02362
G1 X185.685 Y147.01 E32.052
G1 X185.314 Y147.396 E32.07693
G1 X185.072 Y147.64 E32.09294
G1 X184.871 Y147.836 E32.10601
G1 X184.185 Y148.45 E32.14888
G1 X183.696 Y148.826 E32.1776
G1 X183.317 Y149.101 E32.1994
G1 X183.051 Y149.289 E32.21457
G1 X182.77 Y149.48 E32.23039
G1 X181.987 Y149.964 E32.27326
G1 X181.472 Y150.233 E32.30031
G1 X181.039 Y150.445 E32.32276
G1 X180.74 Y150.586 E32.33815
G1 X180.472 Y150.707 E32.35185
G1 X179.617 Y151.049 E32.39472
G1 X179.02 Y151.239 E32.4239
G1 X178.456 Y151.4 E32.45121
G1 X178.192 Y151.471 E32.46394
G1 X177.967 Y151.529 E32.47476
G1 X177.066 Y151.72 E32.51764
G1 X176.403 Y151.81 E32.5488
G1 X175.906 Y151.861 E32.57206
G1 X175.577 Y151.889 E32.58744
G1 X175.282 Y151.91 E32.60121
G1 X174.697 Y151.936 E32.62848
G1 X173.941 Y151.948 E32.66368
G1 X173.773 Y151.949 E32.67151
G1 X91.965 Y151.95 E36.48083
G1 X46.207 Y151.95 E38.61151
G1 X46.053 Y151.949 E38.61869
G1 X45.365 Y151.939 E38.65072
G1 X44.769 Y151.913 E38.6785
G1 X44.318 Y151.881 E38.69956
G1 X43.998 Y151.854 E38.71451
G1 X43.663 Y151.82 E38.73019
G1 X42.752 Y151.687 E38.77306
G1 X42.152 Y151.555 E38.80167
G1 X41.65 Y151.429 E38.82577
G1 X41.416 Y151.367 E38.83704
G1 X41.151 Y151.294 E38.84984
G1 X40.275 Y151.012 E38.89269
G1 X39.64 Y150.752 E38.92464
G1 X39.13 Y150.524 E38.95065
G1 X38.85 Y150.394 E38.96503
G1 X38.622 Y150.284 E38.97681
G1 X37.811 Y149.848 E39.01969
G1 X37.288 Y149.517 E39.04851
G1 X36.883 Y149.243 E39.07128
G1 X36.629 Y149.065 E39.08572
G1 X36.379 Y148.885 E39.10007
G1 X35.656 Y148.315 E39.14294
G1 X35.202 Y147.9 E39.17158
G1 X34.83 Y147.54 E39.19568
G1 X34.612 Y147.323 E39.21001
G1 X34.416 Y147.122 E39.22308
G1 X33.802 Y146.436 E39.26595
G1 X33.43 Y145.953 E39.29433
G1 X33.119 Y145.525 E39.31897
G1 X32.937 Y145.267 E39.33367
G1 X32.789 Y145.05 E39.3459
G1 X32.304 Y144.267 E39.38879
G1 X32.016 Y143.718 E39.41766
G1 X31.772 Y143.217 E39.44361
G1 X31.626 Y142.904 E39.45969
G1 X31.52 Y142.667 E39.47178
G1 X31.181 Y141.811 E39.51465
G1 X31.002 Y141.246 E39.54225
G1 X30.86 Y140.748 E39.56636
G1 X30.784 Y140.466 E39.57996
G1 X30.715 Y140.196 E39.59294
G1 X30.526 Y139.294 E39.63585
G1 X30.44 Y138.647 E39.66624
G1 X30.389 Y138.147 E39.68964
G1 X30.362 Y137.838 E39.70409
G1 X30.339 Y137.521 E39.71889
G1 X30.313 Y136.938 E39.74606
G1 X30.302 Y136.305 E39.77554
G1 X30.3 Y136.121 E39.78411
G1 X30.3 Y83.957 E42.21308
G1 X30.301 Y83.803 E42.22025
G1 X30.311 Y83.115 E42.25229
G1 X30.337 Y82.519 E42.28007
G1 X30.369 Y82.068 E42.30112
G1 X30.396 Y81.748 E42.31608
G1 X30.43 Y81.413 E42.33176
G1 X30.563 Y80.502 E42.37463
G1 X30.695 Y79.902 E42.40323
G1 X30.821 Y79.4 E42.42733
G1 X30.885 Y79.156 E42.43908
G1 X30.958 Y78.892 E42.45183
G1 X31.242 Y78.016 E42.49471
G1 X31.495 Y77.398 E42.52581
G1 X31.723 Y76.887 E42.55186
G1 X31.856 Y76.6 E42.56659
G1 X31.966 Y76.372 E42.57838
G1 X32.402 Y75.561 E42.62126
G1 X32.734 Y75.038 E42.6501
G1 X33.029 Y74.602 E42.67461
G1 X33.19 Y74.37 E42.68776
G1 X33.349 Y74.148 E42.70048
G1 X33.917 Y73.423 E42.74336
G1 X34.359 Y72.939 E42.77389
G1 X34.717 Y72.57 E42.79782
G1 X34.942 Y72.345 E42.81264
G1 X35.146 Y72.147 E42.82588
G1 X35.834 Y71.535 E42.86876
G1 X36.304 Y71.174 E42.89635
G1 X36.683 Y70.899 E42.91816
G1 X36.949 Y70.711 E42.93332
G1 X37.23 Y70.52 E42.94914
G1 X38.013 Y70.036 E42.99201
G0 F6000 X38.224 Y70.377
G1 F1200 X38.711 Y70.123 E43.01758
G1 X39.153 Y69.907 E43.04049
G1 X39.418 Y69.782 E43.05413
G1 X39.676 Y69.665 E43.06732
G1 X40.515 Y69.328 E43.10943
G1 X41.094 Y69.144 E43.13772
G1 X41.659 Y68.983 E43.16507
G1 X41.908 Y68.916 E43.17708
G1 X42.133 Y68.858 E43.1879
G1 X43.017 Y68.671 E43.22997
G1 X43.638 Y68.588 E43.25914
G1 X44.135 Y68.537 E43.28241
G1 X44.452 Y68.51 E43.29722
G1 X44.747 Y68.489 E43.31099
G1 X45.309 Y68.464 E43.33719
G1 X46.066 Y68.452 E43.37244
G1 X46.228 Y68.451 E43.37999
G1 X103.89 Y68.45 E46.06497
G1 X173.793 Y68.45 E49.31995
G1 X173.944 Y68.451 E49.32698
G1 X174.619 Y68.461 E49.35841
G1 X175.195 Y68.486 E49.38526
G1 X175.671 Y68.52 E49.40748
G1 X175.953 Y68.544 E49.42066
G1 X176.285 Y68.577 E49.43619
G1 X177.179 Y68.706 E49.47825
G1 X177.759 Y68.834 E49.50591
G1 X178.269 Y68.962 E49.53039
G1 X178.532 Y69.032 E49.54307
G1 X178.786 Y69.103 E49.55535
G1 X179.644 Y69.384 E49.59739
G1 X180.22 Y69.622 E49.62641
G1 X180.703 Y69.839 E49.65106
G1 X180.932 Y69.945 E49.66282
G1 X181.174 Y70.061 E49.67531
G1 X181.97 Y70.487 E49.71735
G1 X182.476 Y70.808 E49.74525
G1 X182.917 Y71.106 E49.77004
G1 X183.16 Y71.275 E49.78382
G1 X183.377 Y71.431 E49.79626
G1 X184.086 Y71.99 E49.8383
G1 X184.515 Y72.382 E49.86536
G1 X184.882 Y72.737 E49.88914
G1 X185.089 Y72.943 E49.90274
G1 X185.294 Y73.153 E49.9164
G1 X185.895 Y73.826 E49.95842
G1 X186.243 Y74.277 E49.98494
G1 X186.55 Y74.699 E50.00924
G1 X186.73 Y74.955 E50.02382
G1 X186.882 Y75.178 E50.03638
G1 X187.357 Y75.946 E50.07843
G1 X187.622 Y76.451 E50.10499
G1 X187.861 Y76.941 E50.13037
G1 X188 Y77.238 E50.14564
G1 X188.109 Y77.481 E50.15804
G1 X188.441 Y78.321 E50.2001
G1 X188.612 Y78.861 E50.22648
G1 X188.759 Y79.377 E50.25146
G1 X188.836 Y79.663 E50.26525
G1 X188.904 Y79.931 E50.27813
G1 X189.087 Y80.816 E50.32021
G1 X189.163 Y81.391 E50.34721
G1 X189.206 Y81.807 E50.36669
G1 X189.232 Y82.095 E50.38015
G1 X189.257 Y82.429 E50.39575
G1 X189.284 Y83.023 E50.42344
G1 X189.298 Y83.876 E50.46316
G1 X189.299 Y84.043 E50.47094
G1 X189.3 Y136.042 E52.89223
G1 X189.299 Y136.193 E52.89926
G1 X189.289 Y136.869 E52.93074
G1 X189.264 Y137.446 E52.95763
G1 X189.229 Y137.935 E52.98046
G1 X189.204 Y138.222 E52.99388
G1 X189.173 Y138.532 E53.00838
G1 X189.044 Y139.426 E53.05044
G1 X188.917 Y140 E53.07782
G1 X188.791 Y140.502 E53.10192
G1 X188.727 Y140.743 E53.11353
G1 X188.653 Y141.01 E53.12643
G1 X188.374 Y141.869 E53.16849
G1 X188.137 Y142.446 E53.19753
G1 X187.911 Y142.952 E53.22334
G1 X187.787 Y143.219 E53.23704
G1 X187.681 Y143.439 E53.24841
G1 X187.253 Y144.235 E53.2905
G1 X186.945 Y144.721 E53.31729
G1 X186.637 Y145.177 E53.34291
G1 X186.478 Y145.405 E53.35586
G1 X186.337 Y145.602 E53.36714
G1 X185.78 Y146.312 E53.40916
G1 X185.397 Y146.733 E53.43566
G1 X185.026 Y147.119 E53.46059
G1 X184.793 Y147.354 E53.476
G1 X184.592 Y147.55 E53.48907
G1 X183.918 Y148.151 E53.53112
G1 X183.461 Y148.503 E53.55798
G1 X183.082 Y148.778 E53.57978
G1 X182.826 Y148.958 E53.59436
G1 X182.545 Y149.149 E53.61018
G1 X181.776 Y149.623 E53.65224
