;FLAVOR:Marlin
;TIME:7468
;Filament used: 10.8178m
;Layer height: 0.28
;MINX:37.4
;MINY:75.15
;MINZ:0.28
;MAXX:197.6
;MAXY:159.85
;MAXZ:24.08
;Generated with Cura_SteamEngine master
M140 S50
M105
M190 S50
M104 S200
M105
M109 S200
M82 ;absolute extrusion mode
; Ender 3 Custom Start G-code
G92 E0 ; Reset Extruder
G28 ; Home all axes
G1 Z2.0 F3000 ; Move Z Axis up little to prevent scratching of Heat Bed
G1 X0.1 Y20 Z0.3 F5000.0 ; Move to start position
G1 X0.1 Y200.0 Z0.3 F1500.0 E15 ; Draw the first line
G1 X0.4 Y200.0 Z0.3 F5000.0 ; Move to side a little
G1 X0.4 Y20 Z0.3 F1500.0 E30 ; Draw the second line
G92 E0 ; Reset Extruder
G1 Z2.0 F3000 ; Move Z Axis up little to prevent scratching of Heat Bed
G1 X5 Y20 Z0.3 F5000.0 ; Move over to prevent blob squish
G92 E0
G92 E0
G1 F2700 E-5
;LAYER_COUNT:86
;LAYER:0
M107
G0 F6000 X45.328 Y77.183 Z0.28
;TYPE:SKIRT
G1 F2700 E0
G1 F1200 X45.868 Y76.901 E0.02837
G1 X46.342 Y76.67 E0.05292
G1 X46.668 Y76.517 E0.06969
G1 X46.925 Y76.402 E0.0828
G1 X47.797 Y76.056 E0.12648
G1 X48.402 Y75.865 E0.15602
G1 X48.865 Y75.733 E0.17844
G1 X49.179 Y75.648 E0.19359
G1 X49.475 Y75.573 E0.20781
G1 X50.393 Y75.382 E0.25147
G1 X51.043 Y75.295 E0.28201
G1 X51.535 Y75.244 E0.30504
G1 X51.844 Y75.216 E0.31949
G1 X52.163 Y75.192 E0.33438
G1 X52.827 Y75.162 E0.36533
G1 X53.738 Y75.15 E0.40776
G1 X181.293 Y75.15 E6.34725
G1 X182.107 Y75.16 E6.38516
G1 X182.755 Y75.188 E6.41536
G1 X183.237 Y75.223 E6.43786
G1 X183.572 Y75.252 E6.45352
G1 X183.92 Y75.288 E6.46981
G1 X184.848 Y75.425 E6.51349
G1 X185.467 Y75.561 E6.543
G1 X185.937 Y75.679 E6.56557
G1 X186.21 Y75.751 E6.57871
G1 X186.49 Y75.829 E6.59225
G1 X187.382 Y76.119 E6.63592
G1 X188.04 Y76.39 E6.66906
G1 X188.546 Y76.617 E6.69488
G1 X188.803 Y76.736 E6.70807
G1 X189.026 Y76.843 E6.71959
G1 X189.853 Y77.284 E6.76323
G1 X190.441 Y77.656 E6.79563
G1 X190.907 Y77.972 E6.82184
G1 X191.167 Y78.154 E6.83662
G1 X191.375 Y78.304 E6.84856
G1 X192.112 Y78.885 E6.89226
G1 X192.614 Y79.344 E6.92394
G1 X192.952 Y79.673 E6.9459
G1 X193.164 Y79.886 E6.95989
G1 X193.377 Y80.105 E6.97412
G1 X194.002 Y80.804 E7.01778
G1 X194.403 Y81.325 E7.04839
G1 X194.72 Y81.763 E7.07357
G1 X194.924 Y82.054 E7.09012
G1 X195.076 Y82.279 E7.10276
G1 X195.567 Y83.078 E7.14643
G1 X195.849 Y83.618 E7.1748
G1 X196.08 Y84.092 E7.19935
G1 X196.222 Y84.395 E7.21493
G1 X196.335 Y84.646 E7.22775
G1 X196.684 Y85.517 E7.27144
G1 X196.887 Y86.157 E7.30271
G1 X197.027 Y86.65 E7.32657
G1 X197.119 Y86.996 E7.34324
G1 X197.19 Y87.281 E7.35692
G1 X197.377 Y88.2 E7.40059
G1 X197.457 Y88.805 E7.429
G1 X197.507 Y89.287 E7.45157
G1 X197.534 Y89.578 E7.46518
G1 X197.555 Y89.851 E7.47792
G1 X197.586 Y90.528 E7.50948
G1 X197.6 Y91.553 E7.55721
G1 X197.599 Y143.7 E9.9854
G1 X197.59 Y144.348 E10.01557
G1 X197.563 Y144.977 E10.04489
G1 X197.526 Y145.496 E10.06912
G1 X197.495 Y145.849 E10.08562
G1 X197.462 Y146.167 E10.10051
G1 X197.326 Y147.095 E10.14418
G1 X197.19 Y147.71 E10.17351
G1 X197.068 Y148.196 E10.19684
G1 X196.983 Y148.515 E10.21221
G1 X196.902 Y148.801 E10.22605
G1 X196.608 Y149.692 E10.26974
G1 X196.353 Y150.308 E10.30079
G1 X196.16 Y150.738 E10.32273
G1 X196.033 Y151.012 E10.3368
G1 X195.897 Y151.294 E10.35137
G1 X195.454 Y152.121 E10.39506
G1 X195.104 Y152.673 E10.42549
G1 X194.798 Y153.126 E10.45095
G1 X194.608 Y153.399 E10.46644
G1 X194.456 Y153.61 E10.47855
G1 X193.876 Y154.346 E10.52218
G1 X193.422 Y154.844 E10.55356
G1 X193.05 Y155.227 E10.57842
G1 X192.797 Y155.479 E10.59505
G1 X192.598 Y155.671 E10.60792
G1 X191.896 Y156.293 E10.6516
G1 X191.425 Y156.655 E10.67926
G1 X191.023 Y156.947 E10.70239
G1 X190.713 Y157.164 E10.72001
G1 X190.476 Y157.324 E10.73333
G1 X189.677 Y157.815 E10.777
G1 X189.128 Y158.101 E10.80582
G1 X188.632 Y158.342 E10.8315
G1 X188.336 Y158.481 E10.84673
G1 X188.098 Y158.588 E10.85888
G1 X187.226 Y158.935 E10.90258
G1 X186.601 Y159.134 E10.93312
G1 X186.099 Y159.277 E10.95743
G1 X185.753 Y159.37 E10.97411
G1 X185.481 Y159.438 E10.98716
G1 X184.562 Y159.626 E11.03084
G1 X183.941 Y159.708 E11.06001
G1 X183.456 Y159.758 E11.08271
G1 X183.166 Y159.784 E11.09627
G1 X182.891 Y159.805 E11.10911
G1 X182.22 Y159.836 E11.14039
G1 X181.197 Y159.85 E11.18803
G1 X53.558 Y159.849 E17.13144
G1 X52.893 Y159.84 E17.16241
G1 X52.245 Y159.812 E17.19261
G1 X51.763 Y159.777 E17.21511
G1 X51.428 Y159.748 E17.23077
G1 X51.08 Y159.712 E17.24706
G1 X50.152 Y159.575 E17.29074
G1 X49.533 Y159.439 E17.32025
G1 X49.063 Y159.321 E17.34281
G1 X48.79 Y159.249 E17.35596
G1 X48.51 Y159.171 E17.36949
G1 X47.618 Y158.881 E17.41317
G1 X46.96 Y158.61 E17.44631
G1 X46.454 Y158.383 E17.47213
G1 X46.197 Y158.264 E17.48532
G1 X45.974 Y158.157 E17.49683
G1 X45.147 Y157.716 E17.54048
G1 X44.559 Y157.344 E17.57288
G1 X44.093 Y157.028 E17.59909
G1 X43.833 Y156.846 E17.61387
G1 X43.625 Y156.696 E17.62581
G1 X42.888 Y156.115 E17.66951
G1 X42.385 Y155.655 E17.70125
G1 X42.043 Y155.322 E17.72348
G1 X41.83 Y155.108 E17.73754
G1 X41.621 Y154.893 E17.7515
G1 X40.996 Y154.194 E17.79516
G1 X40.597 Y153.675 E17.82564
G1 X40.28 Y153.237 E17.85082
G1 X40.088 Y152.964 E17.86636
G1 X39.934 Y152.737 E17.87913
G1 X39.441 Y151.939 E17.92281
G1 X39.147 Y151.377 E17.95234
G1 X38.923 Y150.917 E17.97617
G1 X38.786 Y150.623 E17.99127
G1 X38.671 Y150.368 E18.0043
G1 X38.322 Y149.498 E18.04795
G1 X38.116 Y148.85 E18.07961
G1 X37.965 Y148.318 E18.10536
G1 X37.889 Y148.034 E18.11905
G1 X37.828 Y147.795 E18.13053
G1 X37.635 Y146.878 E18.17417
G1 X37.543 Y146.197 E18.20617
G1 X37.491 Y145.69 E18.2299
G1 X37.463 Y145.364 E18.24513
G1 X37.44 Y145.047 E18.25993
G1 X37.412 Y144.412 E18.28953
G1 X37.4 Y143.501 E18.33196
G1 X37.401 Y91.291 E20.76307
G1 X37.411 Y90.612 E20.79469
G1 X37.437 Y89.998 E20.82331
G1 X37.471 Y89.517 E20.84576
G1 X37.502 Y89.168 E20.86208
G1 X37.535 Y88.847 E20.8771
G1 X37.67 Y87.919 E20.92077
G1 X37.813 Y87.274 E20.95153
G1 X37.938 Y86.78 E20.97526
G1 X38.004 Y86.53 E20.9873
G1 X38.078 Y86.264 E21.00016
G1 X38.368 Y85.372 E21.04383
G1 X38.633 Y84.725 E21.07639
G1 X38.851 Y84.237 E21.10127
G1 X38.991 Y83.935 E21.11677
G1 X39.109 Y83.691 E21.12939
G1 X39.553 Y82.865 E21.17306
G1 X39.905 Y82.31 E21.20366
G1 X40.197 Y81.879 E21.22791
G1 X40.389 Y81.606 E21.24345
G1 X40.561 Y81.368 E21.25712
G1 X41.142 Y80.632 E21.30078
G1 X41.577 Y80.155 E21.33084
G1 X41.924 Y79.797 E21.35406
G1 X42.164 Y79.558 E21.36983
G1 X42.365 Y79.363 E21.38287
G1 X43.065 Y78.739 E21.42654
G1 X43.575 Y78.347 E21.45649
G1 X44.013 Y78.03 E21.48166
G1 X44.304 Y77.826 E21.49821
G1 X44.529 Y77.674 E21.51086
G1 X45.328 Y77.183 E21.55452
G0 F6000 X45.538 Y77.524
G1 F1200 X46.043 Y77.26 E21.58106
G1 X46.517 Y77.029 E21.60561
G1 X46.831 Y76.882 E21.62176
G1 X47.088 Y76.767 E21.63487
G1 X47.944 Y76.428 E21.67774
G1 X48.512 Y76.249 E21.70547
G1 X48.975 Y76.117 E21.72789
G1 X49.277 Y76.036 E21.74244
G1 X49.573 Y75.961 E21.75666
G1 X50.475 Y75.774 E21.79956
G1 X51.084 Y75.692 E21.82817
G1 X51.576 Y75.641 E21.8512
G1 X51.874 Y75.615 E21.86513
G1 X52.193 Y75.591 E21.88003
G1 X52.833 Y75.562 E21.90986
G1 X53.738 Y75.55 E21.952
G1 X181.293 Y75.55 E27.8915
G1 X182.101 Y75.56 E27.92913
G1 X182.726 Y75.587 E27.95826
G1 X183.208 Y75.622 E27.98076
G1 X183.531 Y75.65 E27.99586
G1 X183.879 Y75.686 E28.01215
G1 X184.79 Y75.821 E28.05503
G1 X185.369 Y75.949 E28.08264
G1 X185.839 Y76.067 E28.10521
G1 X186.103 Y76.137 E28.11792
G1 X186.383 Y76.215 E28.13146
G1 X187.258 Y76.5 E28.17431
G1 X187.877 Y76.755 E28.20548
G1 X188.383 Y76.982 E28.2313
G1 X188.63 Y77.096 E28.24397
G1 X188.853 Y77.203 E28.25549
G1 X189.665 Y77.637 E28.29836
G1 X190.216 Y77.987 E28.32876
G1 X190.682 Y78.303 E28.35497
G1 X190.933 Y78.478 E28.36922
G1 X191.141 Y78.628 E28.38116
G1 X191.864 Y79.199 E28.42406
G1 X192.335 Y79.63 E28.45379
G1 X192.673 Y79.959 E28.47575
G1 X192.878 Y80.164 E28.48925
G1 X193.091 Y80.383 E28.50348
G1 X193.703 Y81.071 E28.54636
G1 X194.079 Y81.559 E28.57504
G1 X194.396 Y81.997 E28.60022
G1 X194.593 Y82.278 E28.6162
G1 X194.745 Y82.503 E28.62884
G1 X195.226 Y83.288 E28.67171
G1 X195.49 Y83.793 E28.69824
G1 X195.721 Y84.267 E28.7228
G1 X195.858 Y84.56 E28.73786
G1 X195.971 Y84.811 E28.75068
G1 X196.312 Y85.666 E28.79354
G1 X196.502 Y86.266 E28.82284
G1 X196.642 Y86.759 E28.84671
G1 X196.731 Y87.093 E28.8628
G1 X196.802 Y87.378 E28.87648
G1 X196.985 Y88.28 E28.91934
G1 X197.059 Y88.846 E28.94592
G1 X197.109 Y89.328 E28.96848
G1 X197.135 Y89.609 E28.98162
G1 X197.156 Y89.882 E28.99437
G1 X197.186 Y90.534 E29.02476
G1 X197.2 Y91.553 E29.07222
G1 X197.199 Y143.694 E31.50012
G1 X197.19 Y144.342 E31.5303
G1 X197.164 Y144.949 E31.55859
G1 X197.127 Y145.468 E31.58281
G1 X197.097 Y145.808 E31.59871
G1 X197.064 Y146.126 E31.61359
G1 X196.93 Y147.037 E31.65647
G1 X196.802 Y147.613 E31.68395
G1 X196.68 Y148.099 E31.70728
G1 X196.598 Y148.406 E31.72207
G1 X196.517 Y148.692 E31.73592
G1 X196.228 Y149.567 E31.77882
G1 X195.989 Y150.145 E31.80795
G1 X195.796 Y150.575 E31.82989
G1 X195.673 Y150.839 E31.84346
G1 X195.537 Y151.121 E31.85804
G1 X195.101 Y151.932 E31.90091
G1 X194.773 Y152.449 E31.92942
G1 X194.467 Y152.902 E31.95487
G1 X194.284 Y153.165 E31.96979
G1 X194.132 Y153.376 E31.9819
G1 X193.562 Y154.099 E32.02477
G1 X193.135 Y154.565 E32.0542
G1 X192.763 Y154.948 E32.07907
G1 X192.519 Y155.191 E32.0951
G1 X192.32 Y155.383 E32.10798
G1 X191.63 Y155.993 E32.15086
G1 X191.19 Y156.331 E32.1767
G1 X190.788 Y156.623 E32.19983
G1 X190.489 Y156.832 E32.21682
G1 X190.252 Y156.992 E32.23013
G1 X189.467 Y157.474 E32.27303
G1 X188.954 Y157.741 E32.29996
G1 X188.458 Y157.982 E32.32563
G1 X188.171 Y158.116 E32.34038
G1 X187.933 Y158.223 E32.35253
G1 X187.078 Y158.564 E32.3954
G1 X186.491 Y158.749 E32.42406
G1 X185.989 Y158.892 E32.44836
G1 X185.656 Y158.982 E32.46442
G1 X185.384 Y159.05 E32.47748
G1 X184.482 Y159.234 E32.52034
G1 X183.9 Y159.31 E32.54767
G1 X183.415 Y159.36 E32.57038
G1 X183.135 Y159.385 E32.58347
G1 X182.86 Y159.406 E32.59631
G1 X182.214 Y159.436 E32.62642
G1 X181.197 Y159.45 E32.67378
G1 X53.564 Y159.449 E38.61691
G1 X52.899 Y159.44 E38.64788
G1 X52.274 Y159.413 E38.67701
G1 X51.792 Y159.378 E38.69951
G1 X51.469 Y159.35 E38.71461
G1 X51.121 Y159.314 E38.7309
G1 X50.21 Y159.179 E38.77378
G1 X49.631 Y159.051 E38.80139
G1 X49.161 Y158.933 E38.82396
G1 X48.897 Y158.863 E38.83668
G1 X48.617 Y158.785 E38.85021
G1 X47.742 Y158.5 E38.89306
G1 X47.123 Y158.245 E38.92423
G1 X46.617 Y158.018 E38.95006
G1 X46.37 Y157.904 E38.96272
G1 X46.147 Y157.797 E38.97424
G1 X45.335 Y157.363 E39.01711
G1 X44.784 Y157.013 E39.04751
G1 X44.318 Y156.697 E39.07373
G1 X44.067 Y156.522 E39.08797
G1 X43.859 Y156.372 E39.09992
G1 X43.136 Y155.801 E39.14281
G1 X42.664 Y155.369 E39.17261
G1 X42.322 Y155.036 E39.19484
G1 X42.116 Y154.83 E39.2084
G1 X41.907 Y154.615 E39.22236
G1 X41.295 Y153.927 E39.26524
G1 X40.921 Y153.441 E39.29379
G1 X40.604 Y153.003 E39.31897
G1 X40.419 Y152.739 E39.33398
G1 X40.265 Y152.512 E39.34675
G1 X39.782 Y151.728 E39.38963
G1 X39.507 Y151.202 E39.41727
G1 X39.283 Y150.742 E39.4411
G1 X39.15 Y150.459 E39.45566
G1 X39.035 Y150.204 E39.46868
G1 X38.693 Y149.349 E39.51156
G1 X38.501 Y148.74 E39.54129
G1 X38.35 Y148.208 E39.56704
G1 X38.276 Y147.935 E39.58022
G1 X38.215 Y147.696 E39.5917
G1 X38.027 Y146.795 E39.63456
G1 X37.941 Y146.157 E39.66454
G1 X37.889 Y145.65 E39.68827
G1 X37.862 Y145.335 E39.70299
G1 X37.839 Y145.018 E39.71779
G1 X37.812 Y144.406 E39.74631
G1 X37.8 Y143.501 E39.78846
G1 X37.801 Y91.297 E42.21929
G1 X37.811 Y90.618 E42.25092
G1 X37.836 Y90.027 E42.27846
G1 X37.87 Y89.546 E42.30091
G1 X37.9 Y89.209 E42.31667
G1 X37.933 Y88.888 E42.33169
G1 X38.066 Y87.977 E42.37456
G1 X38.201 Y87.372 E42.40343
G1 X38.326 Y86.878 E42.42715
G1 X38.39 Y86.637 E42.43876
G1 X38.464 Y86.371 E42.45162
G1 X38.749 Y85.496 E42.49447
G1 X38.998 Y84.889 E42.52502
G1 X39.216 Y84.401 E42.54991
G1 X39.351 Y84.109 E42.56489
G1 X39.469 Y83.865 E42.57751
G1 X39.906 Y83.054 E42.62041
G1 X40.236 Y82.535 E42.64904
G1 X40.528 Y82.104 E42.67329
G1 X40.713 Y81.84 E42.6883
G1 X40.885 Y81.602 E42.70197
G1 X41.456 Y80.88 E42.74483
G1 X41.865 Y80.434 E42.77301
G1 X42.212 Y80.076 E42.79623
G1 X42.442 Y79.845 E42.81141
G1 X42.643 Y79.65 E42.82445
G1 X43.331 Y79.038 E42.86732
G1 X43.809 Y78.671 E42.89538
G1 X44.247 Y78.354 E42.92056
G1 X44.528 Y78.157 E42.93654
G1 X44.753 Y78.005 E42.94918
G1 X45.538 Y77.524 E42.99205
G0 F6000 X45.747 Y77.865
G1 F1200 X46.219 Y77.62 E43.01681
G1 X46.693 Y77.389 E43.04137
G1 X46.995 Y77.248 E43.05689
G1 X47.252 Y77.133 E43.07
G1 X48.092 Y76.801 E43.11206
G1 X48.621 Y76.634 E43.13789
G1 X49.084 Y76.502 E43.1603
G1 X49.376 Y76.423 E43.17439
G1 X49.672 Y76.348 E43.18861
G1 X50.556 Y76.166 E43.23064
G1 X51.125 Y76.09 E43.25737
G1 X51.617 Y76.039 E43.2804
G1 X51.904 Y76.014 E43.29381
G1 X52.223 Y75.99 E43.30871
G1 X52.838 Y75.962 E43.33737
G1 X53.738 Y75.95 E43.37929
G1 X181.293 Y75.95 E49.31878
G1 X182.096 Y75.96 E49.35618
G1 X182.697 Y75.986 E49.38419
G1 X183.179 Y76.021 E49.40669
G1 X183.49 Y76.048 E49.42123
G1 X183.838 Y76.084 E49.43752
G1 X184.731 Y76.217 E49.47956
G1 X185.272 Y76.337 E49.50536
G1 X185.742 Y76.455 E49.52792
G1 X185.995 Y76.522 E49.54011
G1 X186.275 Y76.6 E49.55365
G1 X187.134 Y76.881 E49.59573
G1 X187.713 Y77.12 E49.6249
G1 X188.219 Y77.347 E49.65072
G1 X188.457 Y77.457 E49.66293
G1 X188.68 Y77.564 E49.67445
G1 X189.476 Y77.99 E49.71649
G1 X189.992 Y78.318 E49.74496
G1 X190.458 Y78.634 E49.77117
G1 X190.699 Y78.803 E49.78488
G1 X190.907 Y78.953 E49.79682
G1 X191.616 Y79.513 E49.83889
G1 X192.056 Y79.917 E49.86671
G1 X192.394 Y80.246 E49.88867
G1 X192.591 Y80.443 E49.90164
G1 X192.804 Y80.662 E49.91587
G1 X193.404 Y81.337 E49.95792
G1 X193.755 Y81.794 E49.98475
G1 X194.072 Y82.232 E50.00993
G1 X194.261 Y82.502 E50.02528
G1 X194.413 Y82.727 E50.03792
G1 X194.885 Y83.497 E50.07997
G1 X195.13 Y83.969 E50.10474
G1 X195.361 Y84.443 E50.12929
G1 X195.493 Y84.724 E50.14375
G1 X195.606 Y84.975 E50.15656
G1 X195.94 Y85.814 E50.19861
G1 X196.117 Y86.376 E50.22605
G1 X196.257 Y86.869 E50.24991
G1 X196.342 Y87.189 E50.26533
G1 X196.413 Y87.474 E50.27901
G1 X196.593 Y88.359 E50.32106
G1 X196.662 Y88.888 E50.3459
G1 X196.712 Y89.37 E50.36847
G1 X196.736 Y89.64 E50.38109
G1 X196.757 Y89.913 E50.39384
G1 X196.786 Y90.54 E50.42306
G1 X196.8 Y91.553 E50.47024
G1 X196.799 Y143.689 E52.89791
G1 X196.79 Y144.337 E52.92808
G1 X196.765 Y144.92 E52.95526
G1 X196.728 Y145.439 E52.97948
G1 X196.7 Y145.767 E52.99481
G1 X196.667 Y146.085 E53.0097
G1 X196.534 Y146.978 E53.05174
G1 X196.414 Y147.515 E53.07736
G1 X196.292 Y148.001 E53.10069
G1 X196.213 Y148.297 E53.11496
G1 X196.132 Y148.583 E53.1288
G1 X195.848 Y149.441 E53.17089
G1 X195.624 Y149.981 E53.19811
G1 X195.431 Y150.411 E53.22005
G1 X195.312 Y150.665 E53.23312
G1 X195.176 Y150.947 E53.24769
G1 X194.748 Y151.742 E53.28974
G1 X194.441 Y152.226 E53.31642
G1 X194.135 Y152.679 E53.34188
G1 X193.959 Y152.931 E53.35619
G1 X193.807 Y153.142 E53.3683
G1 X193.247 Y153.851 E53.41037
G1 X192.848 Y154.287 E53.43789
G1 X192.476 Y154.67 E53.46275
G1 X192.241 Y154.903 E53.47816
G1 X192.042 Y155.095 E53.49104
G1 X191.365 Y155.693 E53.5331
G1 X190.954 Y156.008 E53.55721
G1 X190.552 Y156.3 E53.58035
G1 X190.265 Y156.501 E53.59666
G1 X190.028 Y156.661 E53.60998
G1 X189.258 Y157.133 E53.65203
G1 X188.779 Y157.381 E53.67715
G1 X188.283 Y157.622 E53.70283
G1 X188.007 Y157.751 E53.71701
G1 X187.769 Y157.858 E53.72916
G1 X186.93 Y158.192 E53.77121
G1 X186.381 Y158.365 E53.79802
G1 X185.879 Y158.508 E53.82232
G1 X185.559 Y158.593 E53.83774
G1 X185.287 Y158.661 E53.85079
G1 X184.402 Y158.841 E53.89285
G1 X183.859 Y158.912 E53.91835
G1 X183.374 Y158.962 E53.94105
G1 X183.105 Y158.986 E53.95362
G1 X182.83 Y159.007 E53.96647
G1 X182.208 Y159.036 E53.99546
G1 X181.197 Y159.05 E54.04254
G1 X53.569 Y159.049 E59.98544
G1 X52.904 Y159.04 E60.01641
G1 X52.303 Y159.014 E60.04442
G1 X51.821 Y158.979 E60.06692
G1 X51.51 Y158.952 E60.08146
G1 X51.162 Y158.916 E60.09775
G1 X50.269 Y158.783 E60.13979
G1 X49.728 Y158.663 E60.16559
G1 X49.258 Y158.545 E60.18815
G1 X49.005 Y158.478 E60.20034
G1 X48.725 Y158.4 E60.21388
G1 X47.866 Y158.119 E60.25596
