;FLAVOR:Marlin
;TIME:4695
;Filament used: 6.22146m
;Layer height: 0.28
;MINX:41.796
;MINY:76.109
;MINZ:0.28
;MAXX:178.224
;MAXY:143.89
;MAXZ:29.12
;Generated with Cura_SteamEngine master
M140 S50
M105
M190 S50
M104 S200
M105
M109 S200
M82 ;absolute extrusion mode
; Ender 3 Custom Start G-code
G92 E0 ; Reset Extruder
G28 ; Home all axes
G1 Z2.0 F3000 ; Move Z Axis up little to prevent scratching of Heat Bed
G1 X0.1 Y20 Z0.3 F5000.0 ; Move to start position
G1 X0.1 Y200.0 Z0.3 F1500.0 E15 ; Draw the first line
G1 X0.4 Y200.0 Z0.3 F5000.0 ; Move to side a little
G1 X0.4 Y20 Z0.3 F1500.0 E30 ; Draw the second line
G92 E0 ; Reset Extruder
G1 Z2.0 F3000 ; Move Z Axis up little to prevent scratching of Heat Bed
G1 X5 Y20 Z0.3 F5000.0 ; Move over to prevent blob squish
G92 E0
G92 E0
G1 F1500 E-6
;LAYER_COUNT:104
;LAYER:0
M107
G0 F9000 X55.359 Y77.809 Z0.28
;TYPE:SKIRT
G1 F1500 E0
G1 F2400 X55.625 Y77.622 E0.01514
G1 X55.868 Y77.462 E0.02869
G1 X56.401 Y77.152 E0.0574
G1 X56.542 Y77.08 E0.06477
G1 X56.789 Y76.961 E0.07754
G1 X57.122 Y76.811 E0.09454
G1 X57.882 Y76.533 E0.13223
G1 X58.235 Y76.432 E0.14932
G1 X58.572 Y76.344 E0.16554
G1 X59.355 Y76.205 E0.20257
G1 X59.785 Y76.16 E0.2227
G1 X60.035 Y76.139 E0.23439
G1 X60.374 Y76.124 E0.25019
G1 X61.311 Y76.11 E0.29382
G1 X158.803 Y76.109 E4.83346
G1 X159.516 Y76.119 E4.86666
G1 X159.84 Y76.133 E4.88176
G1 X160.296 Y76.166 E4.90305
G1 X160.654 Y76.2 E4.9198
G1 X161.431 Y76.339 E4.95655
G1 X161.76 Y76.422 E4.97235
G1 X162.042 Y76.501 E4.98599
G1 X162.246 Y76.564 E4.99593
G1 X162.787 Y76.762 E5.02275
G1 X162.928 Y76.822 E5.02989
G1 X163.172 Y76.933 E5.04237
G1 X163.503 Y77.093 E5.05949
G1 X164.193 Y77.489 E5.09653
G1 X164.505 Y77.699 E5.11405
G1 X164.96 Y78.04 E5.14052
G1 X165.216 Y78.253 E5.15603
G1 X165.644 Y78.649 E5.18318
G1 X165.916 Y78.928 E5.20133
G1 X166.438 Y79.547 E5.23903
G1 X166.634 Y79.817 E5.25456
G1 X166.781 Y80.031 E5.26665
G1 X166.9 Y80.212 E5.27674
G1 X167.208 Y80.741 E5.30524
G1 X167.28 Y80.882 E5.31262
G1 X167.397 Y81.125 E5.32517
G1 X167.55 Y81.464 E5.34249
G1 X167.831 Y82.232 E5.38057
G1 X168.114 Y83.226 E5.4287
G1 X168.503 Y84.661 E5.49793
G1 X169.264 Y87.19 E5.6209
G1 X170.123 Y89.783 E5.7481
G1 X171.023 Y92.251 E5.87042
G1 X172.001 Y94.719 E5.99404
G1 X173.066 Y97.2 E6.11976
G1 X174.189 Y99.622 E6.24407
G1 X175.366 Y101.988 E6.36712
G1 X176.876 Y104.782 E6.515
G1 X177.175 Y105.356 E6.54514
G1 X177.458 Y105.993 E6.5776
G1 X177.575 Y106.308 E6.59324
G1 X177.648 Y106.517 E6.60355
G1 X177.805 Y106.997 E6.62707
G1 X177.967 Y107.609 E6.65655
G1 X178.032 Y107.934 E6.67198
G1 X178.094 Y108.285 E6.68858
G1 X178.161 Y108.748 E6.71036
G1 X178.211 Y109.395 E6.74058
G1 X178.224 Y110.076 E6.77229
G1 X178.224 Y110.272 E6.78142
G1 X178.22 Y110.524 E6.79316
G1 X178.177 Y111.138 E6.82182
G1 X178.11 Y111.6 E6.84355
G1 X178.085 Y111.75 E6.85063
G1 X177.991 Y112.267 E6.8751
G1 X177.861 Y112.819 E6.90151
G1 X177.786 Y113.065 E6.91348
G1 X177.646 Y113.485 E6.9341
G1 X177.482 Y113.945 E6.95684
G1 X177.216 Y114.568 E6.98838
G1 X177.007 Y114.972 E7.00956
G1 X176.86 Y115.239 E7.02376
G1 X175.608 Y117.555 E7.14635
G1 X174.383 Y119.983 E7.27298
G1 X173.264 Y122.365 E7.39552
G1 X172.188 Y124.837 E7.52106
G1 X171.188 Y127.32 E7.64571
G1 X170.268 Y129.809 E7.76927
G1 X169.414 Y132.338 E7.89356
G1 X168.637 Y134.869 E8.01684
G1 X168.199 Y136.482 E8.09467
G1 X167.839 Y137.745 E8.15583
G1 X167.562 Y138.506 E8.19354
G1 X167.424 Y138.813 E8.20921
G1 X167.286 Y139.103 E8.22416
G1 X166.877 Y139.818 E8.26252
G1 X166.642 Y140.166 E8.28207
G1 X166.414 Y140.484 E8.30029
G1 X165.928 Y141.06 E8.33538
G1 X165.706 Y141.29 E8.35027
G1 X165.515 Y141.479 E8.36278
G1 X165.362 Y141.623 E8.37256
G1 X164.906 Y142.009 E8.40038
G1 X164.774 Y142.109 E8.40809
G1 X164.527 Y142.285 E8.42222
G1 X164.228 Y142.487 E8.43902
G1 X163.551 Y142.879 E8.47545
G1 X163.203 Y143.049 E8.49348
G1 X162.892 Y143.192 E8.50942
G1 X162.138 Y143.467 E8.54679
G1 X161.785 Y143.568 E8.56389
G1 X161.448 Y143.656 E8.58011
G1 X160.665 Y143.795 E8.61714
G1 X160.235 Y143.84 E8.63727
G1 X159.985 Y143.861 E8.64895
G1 X159.646 Y143.876 E8.66475
G1 X158.709 Y143.89 E8.70839
G1 X61.14 Y143.889 E13.25161
G1 X60.484 Y143.88 E13.28216
G1 X60.149 Y143.866 E13.29777
G1 X59.6 Y143.824 E13.32341
G1 X59.419 Y143.806 E13.33188
G1 X58.615 Y143.666 E13.36988
G1 X58.243 Y143.573 E13.38773
G1 X57.686 Y143.402 E13.41486
G1 X57.37 Y143.287 E13.43052
G1 X56.839 Y143.063 E13.45736
G1 X56.53 Y142.913 E13.47335
G1 X55.851 Y142.522 E13.50984
G1 X55.503 Y142.288 E13.52936
G1 X55.239 Y142.102 E13.5444
G1 X54.603 Y141.57 E13.58301
G1 X54.34 Y141.315 E13.60007
G1 X54.156 Y141.129 E13.61225
G1 X54.032 Y140.997 E13.62068
G1 X53.637 Y140.526 E13.64931
G1 X53.483 Y140.321 E13.66125
G1 X53.272 Y140.021 E13.67833
G1 X53.11 Y139.773 E13.69212
G1 X52.811 Y139.257 E13.71989
G1 X52.739 Y139.116 E13.72726
G1 X52.62 Y138.868 E13.74007
G1 X52.471 Y138.537 E13.75697
G1 X52.192 Y137.774 E13.7948
G1 X51.831 Y136.505 E13.85623
G1 X51.578 Y135.561 E13.90174
G1 X50.82 Y133.026 E14.02495
G1 X49.966 Y130.442 E14.15167
G1 X49.073 Y127.976 E14.27379
G1 X48.078 Y125.454 E14.40004
G1 X47.037 Y123.019 E14.52335
G1 X45.909 Y120.573 E14.64877
G1 X44.737 Y118.212 E14.77151
G1 X43.504 Y115.89 E14.89393
G1 X43.154 Y115.253 E14.92777
G1 X43.027 Y115.007 E14.94067
G1 X42.804 Y114.544 E14.9646
G1 X42.58 Y114.044 E14.99011
G1 X42.307 Y113.294 E15.02727
G1 X42.154 Y112.759 E15.05318
G1 X42.095 Y112.535 E15.06397
G1 X42.014 Y112.2 E15.08002
G1 X41.903 Y111.601 E15.10838
G1 X41.876 Y111.37 E15.11921
G1 X41.839 Y110.994 E15.13681
G1 X41.797 Y110.433 E15.163
G1 X41.796 Y109.634 E15.20021
G1 X41.838 Y109.042 E15.22784
G1 X41.881 Y108.591 E15.24894
G1 X42.021 Y107.785 E15.28703
G1 X42.17 Y107.191 E15.31555
G1 X42.217 Y107.016 E15.32398
G1 X42.301 Y106.722 E15.33822
G1 X42.575 Y105.972 E15.3754
G1 X42.789 Y105.494 E15.39979
G1 X42.867 Y105.326 E15.40841
G1 X43.049 Y104.953 E15.42774
G1 X43.188 Y104.688 E15.44167
G1 X43.295 Y104.496 E15.45191
G1 X44.567 Y102.122 E15.57732
G1 X45.762 Y99.733 E15.7017
G1 X46.894 Y97.303 E15.82653
G1 X47.955 Y94.84 E15.9514
G1 X48.941 Y92.368 E16.07533
G1 X49.868 Y89.834 E16.20097
G1 X50.695 Y87.359 E16.32248
G1 X51.491 Y84.732 E16.4503
G1 X52.019 Y82.822 E16.54257
G1 X52.024 Y82.797 E16.54376
G1 X52.114 Y82.475 E16.55933
G1 X52.192 Y82.21 E16.57219
G1 X52.415 Y81.589 E16.60291
G1 X52.486 Y81.423 E16.61132
G1 X52.597 Y81.179 E16.6238
G1 X52.747 Y80.87 E16.6398
G1 X53.138 Y80.191 E16.67628
G1 X53.372 Y79.843 E16.69581
G1 X53.558 Y79.579 E16.71085
G1 X54.09 Y78.943 E16.74945
G1 X54.345 Y78.68 E16.76651
G1 X54.531 Y78.496 E16.7787
G1 X54.663 Y78.372 E16.78713
G1 X55.151 Y77.964 E16.81675
G1 X55.359 Y77.809 E16.82883
G0 F9000 X55.598 Y78.129
G1 F2400 X55.845 Y77.956 E16.84287
G1 X56.088 Y77.796 E16.85642
G1 X56.583 Y77.508 E16.88308
G1 X56.724 Y77.436 E16.89045
G1 X56.953 Y77.326 E16.90228
G1 X57.286 Y77.176 E16.91929
G1 X57.992 Y76.918 E16.95429
G1 X58.345 Y76.817 E16.97139
G1 X58.67 Y76.732 E16.98703
G1 X59.397 Y76.603 E17.02141
G1 X59.827 Y76.558 E17.04154
G1 X60.065 Y76.538 E17.05266
G1 X60.381 Y76.524 E17.06739
G1 X61.311 Y76.51 E17.1107
G1 X158.803 Y76.509 E21.65034
G1 X159.51 Y76.519 E21.68326
G1 X159.811 Y76.532 E21.69729
G1 X160.267 Y76.565 E21.71858
G1 X160.612 Y76.598 E21.73472
G1 X161.333 Y76.727 E21.76882
G1 X161.662 Y76.81 E21.78462
G1 X161.924 Y76.884 E21.7973
G1 X162.128 Y76.947 E21.80724
G1 X162.63 Y77.13 E21.83212
G1 X162.998 Y77.293 E21.85086
G1 X163.329 Y77.453 E21.86798
G1 X163.97 Y77.821 E21.9024
G1 X164.282 Y78.031 E21.91991
G1 X164.704 Y78.348 E21.94449
G1 X164.96 Y78.561 E21.96
G1 X165.357 Y78.928 E21.98517
G1 X165.629 Y79.207 E22.00331
G1 X166.114 Y79.782 E22.03834
G1 X166.31 Y80.052 E22.05388
G1 X166.566 Y80.431 E22.07517
G1 X166.852 Y80.923 E22.10167
G1 X166.924 Y81.064 E22.10904
G1 X167.033 Y81.29 E22.12073
G1 X167.186 Y81.629 E22.13805
G1 X167.447 Y82.342 E22.1734
G1 X167.728 Y83.33 E22.22123
G1 X168.119 Y84.775 E22.29094
G1 X168.887 Y87.326 E22.41499
G1 X169.733 Y89.879 E22.54022
G1 X170.663 Y92.431 E22.6667
G1 X171.632 Y94.876 E22.78916
G1 X172.694 Y97.347 E22.9144
G1 X173.825 Y99.789 E23.03971
G1 X175.013 Y102.178 E23.16395
G1 X176.521 Y104.967 E23.31159
G1 X176.82 Y105.541 E23.34172
G1 X177.083 Y106.132 E23.37184
G1 X177.2 Y106.447 E23.38749
G1 X177.267 Y106.641 E23.39705
G1 X177.424 Y107.121 E23.42056
G1 X177.575 Y107.689 E23.44793
G1 X177.638 Y108.003 E23.46284
G1 X177.7 Y108.354 E23.47944
G1 X177.765 Y108.802 E23.50052
G1 X177.811 Y109.403 E23.52859
G1 X177.824 Y110.084 E23.5603
G1 X177.824 Y110.266 E23.56878
G1 X177.82 Y110.518 E23.58051
G1 X177.78 Y111.088 E23.60712
G1 X177.715 Y111.539 E23.62834
G1 X177.597 Y112.195 E23.65937
G1 X177.477 Y112.708 E23.68391
G1 X177.406 Y112.939 E23.69516
G1 X177.269 Y113.35 E23.71533
G1 X177.105 Y113.81 E23.73807
G1 X176.858 Y114.39 E23.76743
G1 X176.653 Y114.786 E23.78819
G1 X176.525 Y115.017 E23.80049
G1 X175.25 Y117.377 E23.92539
G1 X174.029 Y119.797 E24.05161
G1 X172.893 Y122.214 E24.17596
G1 X171.827 Y124.664 E24.30038
G1 X170.814 Y127.18 E24.42667
G1 X169.89 Y129.679 E24.55074
G1 X169.039 Y132.197 E24.6745
G1 X168.251 Y134.765 E24.79958
G1 X167.815 Y136.372 E24.87711
G1 X167.455 Y137.635 E24.93827
G1 X167.197 Y138.342 E24.97331
G1 X167.006 Y138.764 E24.99488
G1 X166.926 Y138.931 E25.0035
G1 X166.545 Y139.594 E25.03911
G1 X166.31 Y139.942 E25.05866
G1 X166.091 Y140.247 E25.07615
G1 X165.64 Y140.782 E25.10873
G1 X165.418 Y141.012 E25.12361
G1 X165.088 Y141.332 E25.14502
G1 X164.664 Y141.69 E25.17086
G1 X164.532 Y141.79 E25.17857
G1 X164.303 Y141.954 E25.19168
G1 X164.004 Y142.156 E25.20849
G1 X163.375 Y142.519 E25.2423
G1 X162.875 Y142.761 E25.26817
G1 X162.728 Y142.827 E25.27567
G1 X162.028 Y143.082 E25.31036
G1 X161.675 Y143.183 E25.32746
G1 X161.35 Y143.268 E25.3431
G1 X160.623 Y143.397 E25.37748
G1 X160.193 Y143.442 E25.39761
G1 X159.955 Y143.462 E25.40873
G1 X159.639 Y143.476 E25.42346
G1 X158.709 Y143.49 E25.46677
G1 X61.146 Y143.49 E30.00971
G1 X60.49 Y143.481 E30.04026
G1 X60.179 Y143.467 E30.05476
G1 X59.772 Y143.437 E30.07376
G1 X59.458 Y143.407 E30.08845
G1 X58.712 Y143.278 E30.1237
G1 X58.34 Y143.185 E30.14156
G1 X57.823 Y143.026 E30.16674
G1 X57.507 Y142.911 E30.1824
G1 X57.014 Y142.703 E30.20732
G1 X56.705 Y142.553 E30.22331
G1 X56.074 Y142.19 E30.25721
G1 X55.726 Y141.956 E30.27674
G1 X55.472 Y141.777 E30.29121
G1 X54.881 Y141.283 E30.32707
G1 X54.618 Y141.028 E30.34413
G1 X54.324 Y140.723 E30.36386
G1 X53.956 Y140.286 E30.39046
G1 X53.802 Y140.081 E30.4024
G1 X53.607 Y139.802 E30.41825
G1 X53.445 Y139.554 E30.43204
G1 X53.167 Y139.075 E30.45783
G1 X53.095 Y138.934 E30.4652
G1 X52.984 Y138.703 E30.47714
G1 X52.835 Y138.372 E30.49404
G1 X52.576 Y137.664 E30.52914
G1 X52.217 Y136.402 E30.59024
G1 X51.961 Y135.449 E30.63619
G1 X51.193 Y132.881 E30.761
G1 X50.35 Y130.327 E30.88623
G1 X49.434 Y127.798 E31.01148
G1 X48.46 Y125.329 E31.13507
G1 X47.41 Y122.873 E31.25944
G1 X46.273 Y120.407 E31.38589
G1 X45.084 Y118.011 E31.51044
G1 X43.82 Y115.633 E31.63584
G1 X43.505 Y115.06 E31.66629
G1 X43.386 Y114.832 E31.67826
G1 X43.239 Y114.53 E31.6939
G1 X43.169 Y114.38 E31.70161
G1 X42.945 Y113.88 E31.72712
G1 X42.691 Y113.184 E31.76162
G1 X42.538 Y112.649 E31.78753
G1 X42.484 Y112.441 E31.79754
G1 X42.403 Y112.106 E31.81358
G1 X42.3 Y111.549 E31.83996
G1 X42.274 Y111.331 E31.85018
G1 X42.225 Y110.82 E31.87409
G1 X42.195 Y110.404 E31.89351
G1 X42.195 Y109.662 E31.92806
G1 X42.237 Y109.07 E31.95569
G1 X42.279 Y108.631 E31.97623
G1 X42.409 Y107.883 E32.01158
G1 X42.558 Y107.289 E32.0401
G1 X42.602 Y107.125 E32.048
G1 X42.686 Y106.831 E32.06224
G1 X42.94 Y106.135 E32.09674
G1 X43.154 Y105.657 E32.12113
G1 X43.227 Y105.502 E32.12911
G1 X43.409 Y105.129 E32.14843
G1 X43.537 Y104.882 E32.16139
G1 X43.666 Y104.65 E32.17375
G1 X44.927 Y102.297 E32.29805
G1 X46.132 Y99.887 E32.42352
G1 X47.266 Y97.452 E32.54859
G1 X48.318 Y95.01 E32.67241
G1 X49.317 Y92.505 E32.79798
G1 X50.233 Y90.003 E32.92205
G1 X51.081 Y87.463 E33.04674
G1 X51.866 Y84.871 E33.17285
G1 X52.406 Y82.921 E33.26707
G1 X52.409 Y82.904 E33.26787
G1 X52.498 Y82.588 E33.28316
G1 X52.576 Y82.323 E33.29602
G1 X52.783 Y81.746 E33.32456
G1 X52.957 Y81.354 E33.34453
G1 X53.107 Y81.045 E33.36053
G1 X53.47 Y80.414 E33.39443
G1 X53.704 Y80.066 E33.41395
G1 X53.883 Y79.812 E33.42842
G1 X54.377 Y79.221 E33.46429
G1 X54.632 Y78.958 E33.48135
G1 X54.937 Y78.664 E33.50107
G1 X55.39 Y78.284 E33.5286
G1 X55.598 Y78.129 E33.54068
G1 F1500 E27.54068
;MESH:base ups.STL
G0 F9000 X164.979 Y110.92
G0 X163.607 Y111.421
G0 X164.921 Y112.762
G0 X166.157 Y113.723
;TYPE:WALL-INNER
G1 F1500 E33.54068
G1 F2400 X166.814 Y113.899 E33.57235
G1 X166.927 Y113.912 E33.57765
G1 X167.511 Y113.961 E33.60494
G1 X168.189 Y113.902 E33.63663
G1 X168.299 Y113.876 E33.64189
G1 X168.865 Y113.723 E33.66919
G1 X169.49 Y113.431 E33.70132
G1 X170.05 Y113.039 E33.73315
G1 X170.132 Y112.96 E33.73845
G1 X170.545 Y112.546 E33.76568
G1 X170.936 Y111.987 E33.79744
G1 X170.986 Y111.886 E33.80269
G1 X171.233 Y111.353 E33.83004
G1 X171.409 Y110.696 E33.86172
G1 X171.422 Y110.583 E33.86701
G1 X171.471 Y109.999 E33.8943
G1 X171.412 Y109.321 E33.92599
G1 X171.386 Y109.211 E33.93125
G1 X171.233 Y108.645 E33.95856
G1 X170.941 Y108.02 E33.99068
G1 X170.549 Y107.46 E34.02251
G1 X170.47 Y107.378 E34.02781
G1 X170.056 Y106.965 E34.05504
G1 X169.497 Y106.574 E34.0868
G1 X169.396 Y106.524 E34.09205
G1 X168.863 Y106.277 E34.11941
G1 X168.206 Y106.101 E34.15108
G1 X168.093 Y106.088 E34.15637
G1 X167.509 Y106.039 E34.18366
G1 X166.831 Y106.098 E34.21535
G1 X166.721 Y106.124 E34.22062
G1 X166.155 Y106.277 E34.24792
G1 X165.53 Y106.569 E34.28004
G1 X164.97 Y106.961 E34.31187
G1 X164.888 Y107.04 E34.31717
G1 X164.475 Y107.454 E34.3444
G1 X164.084 Y108.013 E34.37617
G1 X164.034 Y108.114 E34.38141
G1 X163.787 Y108.647 E34.40877
G1 X163.611 Y109.304 E34.44044
G1 X163.598 Y109.417 E34.44574
G1 X163.549 Y110.001 E34.47302
G1 X163.608 Y110.679 E34.50471
G1 X163.634 Y110.789 E34.50998
G1 X163.787 Y111.355 E34.53728
G1 X164.079 Y111.98 E34.5694
G1 X164.471 Y112.54 E34.60123
G1 X164.55 Y112.622 E34.60653
G1 X164.964 Y113.035 E34.63376
G1 X165.523 Y113.426 E34.66553
G1 X165.624 Y113.476 E34.67078
G1 X166.157 Y113.723 E34.69813
G0 F9000 X166.294 Y113.346
;TYPE:WALL-OUTER
G1 F2400 X166.889 Y113.505 E34.72681
G1 X166.967 Y113.514 E34.73046
G1 X167.51 Y113.56 E34.75584
G1 X168.125 Y113.506 E34.78459
G1 X168.201 Y113.488 E34.78822
G1 X168.727 Y113.346 E34.81359
G1 X169.289 Y113.083 E34.84248
G1 X169.796 Y112.728 E34.8713
G1 X169.853 Y112.674 E34.87496
G1 X170.237 Y112.288 E34.90031
G1 X170.591 Y111.782 E34.92907
G1 X170.626 Y111.712 E34.93271
G1 X170.856 Y111.216 E34.95817
G1 X171.015 Y110.621 E34.98685
G1 X171.024 Y110.543 E34.9905
G1 X171.07 Y110 E35.01588
G1 X171.016 Y109.385 E35.04463
G1 X170.998 Y109.309 E35.04826
G1 X170.856 Y108.783 E35.07363
G1 X170.593 Y108.221 E35.10253
G1 X170.238 Y107.714 E35.13135
G1 X170.184 Y107.657 E35.135
G1 X169.798 Y107.273 E35.16036
G1 X169.292 Y106.919 E35.18911
G1 X169.222 Y106.884 E35.19275
G1 X168.726 Y106.654 E35.21821
G1 X168.131 Y106.495 E35.24689
G1 X168.053 Y106.486 E35.25055
G1 X167.51 Y106.44 E35.27592
G1 X166.895 Y106.494 E35.30467
G1 X166.819 Y106.512 E35.30831
G1 X166.293 Y106.654 E35.33368
G1 X165.731 Y106.917 E35.36257
G1 X165.224 Y107.272 E35.39139
G1 X165.167 Y107.326 E35.39504
G1 X164.783 Y107.712 E35.4204
G1 X164.429 Y108.218 E35.44915
G1 X164.394 Y108.288 E35.4528
G1 X164.164 Y108.784 E35.47825
G1 X164.005 Y109.379 E35.50693
G1 X163.996 Y109.457 E35.51059
G1 X163.95 Y110 E35.53596
G1 X164.004 Y110.615 E35.56471
G1 X164.022 Y110.691 E35.56835
G1 X164.164 Y111.217 E35.59372
G1 X164.427 Y111.779 E35.62261
G1 X164.782 Y112.286 E35.65143
G1 X164.836 Y112.343 E35.65509
G1 X165.222 Y112.727 E35.68044
G1 X165.728 Y113.081 E35.70919
G1 X165.798 Y113.116 E35.71284
G1 X166.294 Y113.346 E35.7383
G0 F9000 X166.145 Y113.759
G1 F1500 E29.7383
G0 F9000 X164.841 Y113.182
G0 X165.78 Y112.063
G0 X54.573 Y111.73
G0 X55.692 Y112.669
G0 X54.49 Y113.431
;TYPE:WALL-INNER
G1 F1500 E35.7383
