;FLAVOR:Marlin
;TIME:3280
;Filament used: 3.30823m
;Layer height: 0.28
;MINX:51.16
;MINY:75.509
;MINZ:0.28
;MAXX:168.841
;MAXY:144.49
;MAXZ:25.48
;Generated with Cura_SteamEngine master
M140 S50
M105
M190 S50
M104 S200
M105
M109 S200
M82 ;absolute extrusion mode
; Ender 3 Custom Start G-code
G92 E0 ; Reset Extruder
G28 ; Home all axes
G1 Z2.0 F3000 ; Move Z Axis up little to prevent scratching of Heat Bed
G1 X0.1 Y20 Z0.3 F5000.0 ; Move to start position
G1 X0.1 Y200.0 Z0.3 F1500.0 E15 ; Draw the first line
G1 X0.4 Y200.0 Z0.3 F5000.0 ; Move to side a little
G1 X0.4 Y20 Z0.3 F1500.0 E30 ; Draw the second line
G92 E0 ; Reset Extruder
G1 Z2.0 F3000 ; Move Z Axis up little to prevent scratching of Heat Bed
G1 X5 Y20 Z0.3 F5000.0 ; Move over to prevent blob squish
G92 E0
G92 E0
G1 F1500 E-6
;LAYER_COUNT:91
;LAYER:0
M107
G0 F9000 X55.131 Y77.234 Z0.28
;TYPE:SKIRT
G1 F1500 E0
G1 F2400 X55.468 Y77.002 E0.01905
G1 X56.155 Y76.605 E0.056
G1 X56.59 Y76.393 E0.07853
G1 X56.946 Y76.23 E0.09676
G1 X57.685 Y75.96 E0.1334
G1 X57.984 Y75.874 E0.14789
G1 X58.19 Y75.819 E0.15781
G1 X58.51 Y75.74 E0.17316
G1 X59.251 Y75.609 E0.2082
G1 X59.529 Y75.579 E0.22122
G1 X59.716 Y75.562 E0.22996
G1 X60.053 Y75.537 E0.2457
G1 X60.384 Y75.523 E0.26113
G1 X61.273 Y75.51 E0.30253
G1 X77.066 Y75.51 E1.03791
G1 X77.728 Y75.519 E1.06874
G1 X78.395 Y75.568 E1.09988
G1 X79.028 Y75.69 E1.1299
G1 X79.379 Y75.779 E1.14676
G1 X80.157 Y76.038 E1.18494
G1 X80.627 Y76.234 E1.20866
G1 X83.168 Y77.251 E1.3361
G1 X85.685 Y78.178 E1.461
G1 X88.17 Y79.013 E1.58307
G1 X90.756 Y79.801 E1.70895
G1 X93.344 Y80.511 E1.83391
G1 X95.96 Y81.15 E1.9593
G1 X98.508 Y81.694 E2.08062
G1 X101.184 Y82.189 E2.20734
G1 X103.799 Y82.596 E2.33058
G1 X106.439 Y82.931 E2.45449
G1 X109.11 Y83.193 E2.57946
G1 X111.761 Y83.378 E2.7032
G1 X114.412 Y83.488 E2.82675
G1 X117.134 Y83.523 E2.95351
G1 X119.751 Y83.484 E3.07538
G1 X122.438 Y83.367 E3.20062
G1 X125.114 Y83.174 E3.32555
G1 X127.763 Y82.908 E3.44952
G1 X130.432 Y82.563 E3.57483
G1 X133.016 Y82.155 E3.69664
G1 X135.69 Y81.655 E3.82331
G1 X138.236 Y81.104 E3.94461
G1 X140.897 Y80.449 E4.07221
G1 X143.421 Y79.751 E4.19415
G1 X146.019 Y78.954 E4.32069
G1 X148.525 Y78.105 E4.4439
G1 X151.017 Y77.183 E4.56762
G1 X153.585 Y76.138 E4.69672
G1 X153.884 Y76.021 E4.71167
G1 X154.339 Y75.865 E4.73407
G1 X154.708 Y75.756 E4.75198
G1 X155.359 Y75.606 E4.78309
G1 X156.192 Y75.528 E4.82205
G1 X157.227 Y75.51 E4.87025
G1 X158.827 Y75.509 E4.94475
G1 X159.519 Y75.519 E4.97698
G1 X159.837 Y75.532 E4.9918
G1 X160.297 Y75.565 E5.01327
G1 X160.699 Y75.604 E5.03208
G1 X161.51 Y75.747 E5.07043
G1 X162.028 Y75.88 E5.09533
G1 X162.268 Y75.947 E5.10693
G1 X163.059 Y76.234 E5.14611
G1 X163.545 Y76.454 E5.17095
G1 X163.748 Y76.551 E5.18143
G1 X164.474 Y76.967 E5.22039
G1 X164.858 Y77.227 E5.24199
G1 X165.14 Y77.427 E5.25809
G1 X165.777 Y77.959 E5.29673
G1 X166.102 Y78.274 E5.31781
G1 X166.358 Y78.534 E5.3348
G1 X166.873 Y79.146 E5.37204
G1 X167.109 Y79.471 E5.39074
G1 X167.352 Y79.825 E5.41074
G1 X167.746 Y80.506 E5.44737
G1 X167.953 Y80.931 E5.46938
G1 X168.11 Y81.274 E5.48695
G1 X168.388 Y82.03 E5.52446
G1 X168.475 Y82.332 E5.53909
G1 X168.535 Y82.559 E5.55002
G1 X168.615 Y82.888 E5.56579
G1 X168.741 Y83.609 E5.59987
G1 X168.788 Y84.065 E5.62122
G1 X168.813 Y84.402 E5.63695
G1 X168.827 Y84.73 E5.65224
G1 X168.84 Y85.594 E5.69248
G1 X168.841 Y134.48 E7.96881
G1 X168.832 Y135.159 E8.00043
G1 X168.817 Y135.492 E8.01595
G1 X168.783 Y135.959 E8.03776
G1 X168.746 Y136.344 E8.05577
G1 X168.605 Y137.15 E8.09387
G1 X168.505 Y137.546 E8.11289
G1 X168.402 Y137.919 E8.1309
G1 X168.122 Y138.694 E8.16927
G1 X167.893 Y139.202 E8.19522
G1 X167.793 Y139.41 E8.20597
G1 X167.383 Y140.124 E8.24431
G1 X167.123 Y140.508 E8.2659
G1 X166.923 Y140.79 E8.282
G1 X166.391 Y141.427 E8.32064
G1 X166.076 Y141.752 E8.34172
G1 X165.816 Y142.008 E8.35871
G1 X165.199 Y142.527 E8.39625
G1 X164.876 Y142.761 E8.41482
G1 X164.536 Y142.995 E8.43404
G1 X163.845 Y143.395 E8.47122
G1 X163.414 Y143.605 E8.49355
G1 X163.069 Y143.763 E8.51121
G1 X162.311 Y144.041 E8.54881
G1 X162.011 Y144.127 E8.56334
G1 X161.81 Y144.181 E8.57303
G1 X161.49 Y144.26 E8.58838
G1 X160.749 Y144.391 E8.62342
G1 X160.471 Y144.421 E8.63644
G1 X160.284 Y144.438 E8.64518
G1 X159.947 Y144.463 E8.66092
G1 X159.617 Y144.477 E8.6763
G1 X158.729 Y144.49 E8.71765
G1 X61.129 Y144.49 E13.26232
G1 X60.481 Y144.481 E13.29249
G1 X60.151 Y144.467 E13.30787
G1 X59.686 Y144.433 E13.32958
G1 X59.301 Y144.396 E13.34759
G1 X58.487 Y144.252 E13.38608
G1 X57.973 Y144.12 E13.41079
G1 X57.736 Y144.054 E13.42225
G1 X56.941 Y143.766 E13.46162
G1 X56.455 Y143.546 E13.48646
G1 X56.252 Y143.449 E13.49694
G1 X55.526 Y143.033 E13.5359
G1 X55.142 Y142.773 E13.5575
G1 X54.86 Y142.573 E13.57359
G1 X54.223 Y142.041 E13.61224
G1 X53.898 Y141.726 E13.63331
G1 X53.642 Y141.466 E13.65031
G1 X53.127 Y140.854 E13.68755
G1 X52.891 Y140.529 E13.70625
G1 X52.648 Y140.175 E13.72625
G1 X52.255 Y139.495 E13.76282
G1 X52.045 Y139.064 E13.78514
G1 X51.878 Y138.698 E13.80387
G1 X51.605 Y137.95 E13.84095
G1 X51.521 Y137.656 E13.85519
G1 X51.467 Y137.452 E13.86502
G1 X51.388 Y137.13 E13.88045
G1 X51.26 Y136.399 E13.91501
G1 X51.23 Y136.122 E13.92798
G1 X51.213 Y135.936 E13.93668
G1 X51.188 Y135.601 E13.95232
G1 X51.173 Y135.267 E13.96789
G1 X51.16 Y134.378 E14.00929
G1 X51.16 Y85.467 E16.28679
G1 X51.169 Y84.828 E16.31655
G1 X51.183 Y84.493 E16.33216
G1 X51.217 Y84.034 E16.35359
G1 X51.253 Y83.661 E16.37104
G1 X51.398 Y82.837 E16.41
G1 X51.532 Y82.317 E16.43501
G1 X51.598 Y82.081 E16.44642
G1 X51.882 Y81.297 E16.48524
G1 X52.104 Y80.805 E16.51038
G1 X52.201 Y80.602 E16.52085
G1 X52.617 Y79.876 E16.55982
G1 X52.877 Y79.492 E16.58141
G1 X53.077 Y79.21 E16.59751
G1 X53.609 Y78.573 E16.63615
G1 X53.924 Y78.248 E16.65723
G1 X54.184 Y77.992 E16.67422
G1 X54.801 Y77.473 E16.71176
G1 X55.131 Y77.234 E16.73074
G0 F9000 X55.366 Y77.558
G1 F2400 X55.693 Y77.333 E16.74922
G1 X56.33 Y76.965 E16.78347
G1 X56.919 Y76.68 E16.81394
G1 X57.109 Y76.595 E16.82363
G1 X57.796 Y76.345 E16.85768
G1 X58.095 Y76.259 E16.87216
G1 X58.286 Y76.208 E16.88137
G1 X58.606 Y76.129 E16.89672
G1 X59.294 Y76.007 E16.92925
G1 X59.572 Y75.977 E16.94227
G1 X59.745 Y75.961 E16.95036
G1 X60.082 Y75.936 E16.9661
G1 X60.39 Y75.923 E16.98045
G1 X61.273 Y75.91 E17.02157
G1 X77.061 Y75.909 E17.75673
G1 X77.723 Y75.918 E17.78756
G1 X78.366 Y75.967 E17.81758
G1 X78.93 Y76.078 E17.84435
G1 X79.281 Y76.167 E17.86121
G1 X80.003 Y76.407 E17.89664
G1 X80.483 Y76.607 E17.92085
G1 X83.018 Y77.621 E18.04799
G1 X85.557 Y78.556 E18.17397
G1 X88.073 Y79.402 E18.29757
G1 X90.629 Y80.181 E18.422
G1 X93.224 Y80.893 E18.5473
G1 X95.879 Y81.541 E18.67455
G1 X98.465 Y82.094 E18.79769
G1 X101.082 Y82.578 E18.92162
G1 X103.729 Y82.99 E19.04636
G1 X106.417 Y83.331 E19.17252
G1 X109.079 Y83.592 E19.29707
G1 X111.717 Y83.776 E19.42021
G1 X114.425 Y83.888 E19.54641
G1 X117.135 Y83.923 E19.67261
G1 X119.775 Y83.883 E19.79555
G1 X122.448 Y83.767 E19.92014
G1 X125.147 Y83.573 E20.04614
G1 X127.822 Y83.304 E20.17133
G1 X130.469 Y82.962 E20.29561
G1 X133.114 Y82.544 E20.4203
G1 X135.749 Y82.052 E20.54511
G1 X138.345 Y81.49 E20.66879
G1 X140.953 Y80.848 E20.79386
G1 X143.582 Y80.12 E20.92088
G1 X146.118 Y79.342 E21.0444
G1 X148.655 Y78.483 E21.16912
G1 X151.18 Y77.549 E21.29448
G1 X153.731 Y76.511 E21.42273
G1 X154.03 Y76.394 E21.43768
G1 X154.452 Y76.249 E21.45845
G1 X154.821 Y76.14 E21.47637
G1 X155.449 Y75.996 E21.50637
G1 X156.2 Y75.928 E21.54148
G1 X157.227 Y75.91 E21.58931
G1 X158.907 Y75.91 E21.66754
G1 X159.513 Y75.919 E21.69576
G1 X159.808 Y75.931 E21.70951
G1 X160.268 Y75.964 E21.73098
G1 X160.658 Y76.002 E21.74923
G1 X161.411 Y76.135 E21.78484
G1 X161.92 Y76.266 E21.80931
G1 X162.16 Y76.333 E21.82091
G1 X162.895 Y76.599 E21.85731
G1 X163.373 Y76.815 E21.88173
G1 X163.576 Y76.912 E21.89221
G1 X164.249 Y77.298 E21.92834
G1 X164.745 Y77.636 E21.95628
G1 X164.907 Y77.752 E21.96556
G1 X165.499 Y78.246 E22.00147
G1 X165.824 Y78.561 E22.02254
G1 X166.071 Y78.812 E22.03894
G1 X166.55 Y79.381 E22.07357
G1 X166.786 Y79.706 E22.09227
G1 X167.021 Y80.048 E22.1116
G1 X167.386 Y80.681 E22.14562
G1 X167.593 Y81.106 E22.16763
G1 X167.746 Y81.439 E22.1847
G1 X168.004 Y82.141 E22.21952
G1 X168.091 Y82.443 E22.23416
G1 X168.147 Y82.653 E22.24428
G1 X168.227 Y82.982 E22.26004
G1 X168.344 Y83.652 E22.29171
G1 X168.373 Y83.92 E22.30426
G1 X168.389 Y84.094 E22.3124
G1 X168.414 Y84.431 E22.32814
G1 X168.427 Y84.736 E22.34235
G1 X168.44 Y85.594 E22.38231
G1 X168.441 Y134.475 E24.65841
G1 X168.432 Y135.154 E24.69003
G1 X168.418 Y135.463 E24.70444
G1 X168.372 Y136.076 E24.73306
G1 X168.349 Y136.303 E24.74368
G1 X168.217 Y137.052 E24.7791
G1 X168.083 Y137.576 E24.80428
G1 X168.017 Y137.812 E24.81569
G1 X167.757 Y138.531 E24.85129
G1 X167.533 Y139.029 E24.87672
G1 X167.433 Y139.237 E24.88747
G1 X167.052 Y139.899 E24.92303
G1 X166.714 Y140.395 E24.95098
G1 X166.598 Y140.557 E24.96026
G1 X166.104 Y141.149 E24.99616
G1 X165.789 Y141.474 E25.01724
G1 X165.538 Y141.721 E25.03364
G1 X164.965 Y142.203 E25.0685
G1 X164.642 Y142.437 E25.08707
G1 X164.311 Y142.664 E25.10576
G1 X163.67 Y143.036 E25.14027
G1 X163.239 Y143.246 E25.1626
G1 X162.905 Y143.399 E25.1797
G1 X162.201 Y143.657 E25.21462
G1 X161.901 Y143.743 E25.22915
G1 X161.714 Y143.792 E25.23815
G1 X161.394 Y143.871 E25.2535
G1 X160.706 Y143.993 E25.28603
G1 X160.428 Y144.023 E25.29905
G1 X160.255 Y144.039 E25.30714
G1 X159.918 Y144.064 E25.32288
G1 X159.611 Y144.077 E25.33719
G1 X158.729 Y144.09 E25.37826
G1 X61.207 Y144.091 E29.91929
G1 X60.487 Y144.081 E29.95282
G1 X60.18 Y144.068 E29.96713
G1 X59.715 Y144.034 E29.98884
G1 X59.342 Y143.998 E30.00629
G1 X58.586 Y143.864 E30.04204
G1 X58.08 Y143.734 E30.06637
G1 X57.843 Y143.668 E30.07783
G1 X57.105 Y143.401 E30.11437
G1 X56.627 Y143.185 E30.13879
G1 X56.424 Y143.088 E30.14927
G1 X55.751 Y142.702 E30.1854
G1 X55.255 Y142.364 E30.21335
G1 X55.093 Y142.248 E30.22262
G1 X54.501 Y141.754 E30.25853
G1 X54.176 Y141.439 E30.2796
G1 X53.929 Y141.188 E30.296
G1 X53.45 Y140.619 E30.33063
G1 X53.214 Y140.294 E30.34933
G1 X52.979 Y139.952 E30.36866
G1 X52.614 Y139.32 E30.40264
G1 X52.404 Y138.889 E30.42496
G1 X52.243 Y138.535 E30.44307
G1 X51.99 Y137.841 E30.47747
G1 X51.906 Y137.547 E30.49171
G1 X51.856 Y137.357 E30.50086
G1 X51.777 Y137.035 E30.51629
G1 X51.657 Y136.356 E30.5484
G1 X51.627 Y136.079 E30.56137
G1 X51.611 Y135.906 E30.56946
G1 X51.586 Y135.571 E30.58511
G1 X51.573 Y135.261 E30.59955
G1 X51.56 Y134.378 E30.64067
G1 X51.56 Y85.473 E32.9179
G1 X51.569 Y84.834 E32.94765
G1 X51.582 Y84.523 E32.96215
G1 X51.616 Y84.064 E32.98358
G1 X51.651 Y83.701 E33.00056
G1 X51.786 Y82.936 E33.03673
G1 X51.917 Y82.424 E33.06134
G1 X51.983 Y82.188 E33.07275
G1 X52.247 Y81.46 E33.10881
G1 X52.465 Y80.977 E33.13349
G1 X52.562 Y80.774 E33.14396
G1 X52.948 Y80.101 E33.18009
G1 X53.286 Y79.605 E33.20804
G1 X53.402 Y79.443 E33.21732
G1 X53.896 Y78.851 E33.25322
G1 X54.211 Y78.526 E33.27429
G1 X54.462 Y78.279 E33.29069
G1 X55.036 Y77.797 E33.32559
G1 X55.366 Y77.558 E33.34457
G1 F1500 E27.34457
;MESH:tapa upsV1.3.STL
G0 F9000 X62.831 Y87.686
G0 X62.627 Y88.113
G0 X62.404 Y90.709
G0 X64.241 Y92.546
G0 X66.359 Y92.546
G0 X75.178 Y104.442
G0 X65.953 Y104.503
G0 X75.41 Y104.756
G0 X78.863 Y109.443
G0 X80.894 Y109.492
G0 X80.716 Y109.69
G0 X79.094 Y109.755
G0 X86.232 Y119.442
G0 X80.668 Y119.51
G0 X80.49 Y119.708
G0 X86.463 Y119.756
G0 X89.916 Y124.442
G0 X93.65 Y129.51
G0 X92.945 Y128.057
G0 X108.451 Y128.417
G0 X108.689 Y128.904
G0 X107.291 Y130.95
;TYPE:WALL-INNER
G1 F1500 E33.34457
G1 F2400 X108.885 Y128.925 E33.46457
G1 X108.555 Y128.25 E33.49955
G1 X93.039 Y128.25 E34.22204
G1 X91.445 Y130.275 E34.34204
G1 X91.775 Y130.95 E34.37703
G1 X107.291 Y130.95 E35.09952
G0 F9000 X107.097 Y130.55
;TYPE:WALL-OUTER
G1 F2400 X108.415 Y128.875 E35.19876
G1 X108.305 Y128.65 E35.21043
G1 X93.233 Y128.65 E35.91224
G1 X91.915 Y130.325 E36.01149
G1 X92.025 Y130.55 E36.02315
G1 X107.097 Y130.55 E36.72496
G1 F1500 E30.72496
G0 F9000 X107.097 Y130.85
G0 X94.571 Y131.12
G0 X94.571 Y129.685
G0 X67.413 Y124.685
G0 X67.413 Y128.949
G0 X65.507 Y131.058
;TYPE:WALL-INNER
G1 F1500 E36.72496
G1 F2400 X67.185 Y128.925 E36.85134
G1 X66.855 Y128.25 E36.88632
G1 X64.7 Y128.25 E36.98667
G1 X64.7 Y130.776 E37.10429
G1 X65.507 Y131.058 E37.14409
G0 F9000 X65.369 Y130.586
;TYPE:WALL-OUTER
G1 F2400 X66.715 Y128.875 E37.24546
G1 X66.605 Y128.65 E37.25713
G1 X65.1 Y128.65 E37.32721
G1 X65.1 Y130.492 E37.41298
G1 X65.369 Y130.586 E37.42624
G1 F1500 E31.42624
G0 F9000 X65.269 Y130.868
G0 X66.989 Y128.904
G0 X66.789 Y128.06
G0 X66.789 Y124.685
G0 X66.642 Y119.764
G0 X65.953 Y119.697
G0 X66.632 Y119.435
G0 X66.493 Y114.763
G0 X65.953 Y114.697
G0 X66.483 Y114.434
G0 X66.344 Y109.763
G0 X65.953 Y109.697
G0 X66.335 Y109.435
G0 X66.196 Y104.764
G0 X65.953 Y104.697
G0 X66.186 Y104.434
G0 X65.838 Y92.686
G0 X66.09 Y94.125
G0 X66.789 Y93.74
;TYPE:WALL-INNER
G1 F1500 E37.42624
G1 F2400 X67.476 Y93.42 E37.46153
G1 X68.097 Y92.985 E37.49684
G1 X68.635 Y92.447 E37.53227
G1 X69.07 Y91.826 E37.56757
G1 X69.39 Y91.139 E37.60286
G1 X69.586 Y90.406 E37.63819
G1 X69.653 Y89.65 E37.67353
G1 X69.586 Y88.894 E37.70887
G1 X69.39 Y88.161 E37.7442
G1 X69.07 Y87.474 E37.77949
G1 X68.635 Y86.853 E37.8148
G1 X68.097 Y86.315 E37.85023
G1 X67.476 Y85.88 E37.88553
G1 X66.789 Y85.56 E37.92082
G1 X66.056 Y85.364 E37.95615
G1 X65.3 Y85.297 E37.99149
G1 X64.544 Y85.364 E38.02683
G1 X63.811 Y85.56 E38.06216
G1 X63.124 Y85.88 E38.09745
G1 X62.503 Y86.315 E38.13276
G1 X61.965 Y86.853 E38.16819
G1 X61.53 Y87.474 E38.20349
G1 X61.21 Y88.161 E38.23878
G1 X61.014 Y88.894 E38.27411
G1 X60.947 Y89.65 E38.30945
G1 X61.014 Y90.406 E38.34479
G1 X61.21 Y91.139 E38.38012
G1 X61.53 Y91.826 E38.41541
G1 X61.965 Y92.447 E38.45072
G1 X62.503 Y92.985 E38.48615
G1 X63.124 Y93.42 E38.52145
G1 X63.811 Y93.74 E38.55674
G1 X64.544 Y93.936 E38.59207
G1 X65.3 Y94.003 E38.62741
G1 X66.056 Y93.936 E38.66275
G1 X66.789 Y93.74 E38.69808
G0 F9000 X66.652 Y93.363
;TYPE:WALL-OUTER
G1 F2400 X67.275 Y93.072 E38.7301
G1 X67.839 Y92.677 E38.76216
G1 X68.327 Y92.189 E38.7943
G1 X68.722 Y91.625 E38.82636
G1 X69.013 Y91.002 E38.85838
G1 X69.191 Y90.336 E38.89048
G1 X69.251 Y89.65 E38.92255
G1 X69.191 Y88.964 E38.95461
G1 X69.013 Y88.298 E38.98671
G1 X68.722 Y87.675 E39.01873
G1 X68.327 Y87.111 E39.05079
G1 X67.839 Y86.623 E39.08293
G1 X67.275 Y86.228 E39.11499
G1 X66.652 Y85.937 E39.14701
G1 X65.986 Y85.759 E39.17911
G1 X65.3 Y85.699 E39.21117
G1 X64.614 Y85.759 E39.24324
G1 X63.948 Y85.937 E39.27534
G1 X63.325 Y86.228 E39.30736
G1 X62.761 Y86.623 E39.33942
G1 X62.273 Y87.111 E39.37155
G1 X61.878 Y87.675 E39.40362
G1 X61.587 Y88.298 E39.43564
G1 X61.409 Y88.964 E39.46774
G1 X61.349 Y89.65 E39.4998
G1 X61.409 Y90.336 E39.53187
G1 X61.587 Y91.002 E39.56397
G1 X61.878 Y91.625 E39.59598
G1 X62.273 Y92.189 E39.62805
G1 X62.761 Y92.677 E39.66018
G1 X63.325 Y93.072 E39.69224
G1 X63.948 Y93.363 E39.72426
G1 X64.614 Y93.541 E39.75636
G1 X65.3 Y93.601 E39.78843
G1 X65.986 Y93.541 E39.82049
G1 X66.652 Y93.363 E39.85259
G0 F9000 X66.802 Y93.776
G1 F1500 E33.85259
G0 F9000 X68.221 Y93.131
G0 X67.283 Y92.011
G0 X68.221 Y104.515
G0 X68.221 Y103.06
G0 X86.421 Y103.417
G0 X86.659 Y103.904
G0 X85.261 Y105.95
;TYPE:WALL-INNER
G1 F1500 E39.85259
G1 F2400 X86.855 Y103.925 E39.97259
G1 X86.525 Y103.25 E40.00758
G1 X64.7 Y103.25 E41.02384
G1 X64.7 Y105.95 E41.14957
G1 X85.261 Y105.95 E42.10697
G0 F9000 X85.067 Y105.55
;TYPE:WALL-OUTER
G1 F2400 X86.385 Y103.875 E42.20622
G1 X86.275 Y103.65 E42.21788
G1 X65.1 Y103.65 E43.20388
G1 X65.1 Y105.55 E43.29235
G1 X85.067 Y105.55 E44.2221
G1 F1500 E38.2221
G0 F9000 X85.067 Y105.85
G0 X81.327 Y106.14
G0 X81.327 Y108.06
G0 X82.487 Y108.417
G0 X82.725 Y108.904
G0 X81.327 Y110.95
;TYPE:WALL-INNER
G1 F1500 E44.2221
G1 F2400 X82.921 Y108.925 E44.3421
G1 X82.591 Y108.25 E44.37708
G1 X64.7 Y108.25 E45.21016
G1 X64.7 Y110.95 E45.33589
G1 X81.327 Y110.95 E46.11011
G0 F9000 X81.133 Y110.55
;TYPE:WALL-OUTER
G1 F2400 X82.451 Y108.875 E46.20935
G1 X82.341 Y108.65 E46.22102
