;FLAVOR:Marlin
;TIME:3288
;Filament used: 5.54923m
;Layer height: 0.28
;MINX:67.9
;MINY:67.65
;MINZ:0.28
;MAXX:152.1
;MAXY:152.35
;MAXZ:24.08
;POSTPROCESSED
;Generated with Cura_SteamEngine 4.3.0
M140 S50
M105
M190 S50
M104 S200
M105
M109 S200
M82 ;absolute extrusion mode
M201 X500.00 Y500.00 Z100.00 E5000.00 ;Setup machine max acceleration
M203 X500.00 Y500.00 Z10.00 E50.00 ;Setup machine max feedrate
M204 P500.00 R1000.00 T500.00 ;Setup Print/Retract/Travel acceleration
M205 X8.00 Y8.00 Z0.40 E5.00 ;Setup Jerk
M220 S100 ;Reset Feedrate
M221 S100 ;Reset Flowrate

G28 ;Home

G92 E0 ;Reset Extruder
G1 Z2.0 F3000 ;Move Z Axis up
G1 X10.1 Y20 Z0.28 F5000.0 ;Move to start position
G1 X10.1 Y200.0 Z0.28 F1500.0 E15 ;Draw the first line
G1 X10.4 Y200.0 Z0.28 F5000.0 ;Move to side a little
G1 X10.4 Y20 Z0.28 F1500.0 E30 ;Draw the second line
G92 E0 ;Reset Extruder
G1 Z2.0 F3000 ;Move Z Axis up

G92 E0
G92 E0
G1 F2700 E-5
;LAYER_COUNT:86
;LAYER:0
M117 Layer 1 CE3_iot3g_chico of 86
M107
G0 F9000 X72.424 Y72.3 Z0.28
;TYPE:SKIRT
G1 F2700 E0
G1 F1800 X72.667 Y72.056 E0.01603
G1 X72.869 Y71.86 E0.02914
G1 X73.569 Y71.237 E0.07278
G1 X74.048 Y70.867 E0.10096
G1 X74.443 Y70.579 E0.12372
G1 X74.749 Y70.364 E0.14114
G1 X75.007 Y70.189 E0.15565
G1 X75.805 Y69.696 E0.19933
G1 X76.341 Y69.414 E0.22753
G1 X76.794 Y69.192 E0.25102
G1 X77.109 Y69.044 E0.26723
G1 X77.377 Y68.923 E0.28092
G1 X78.247 Y68.574 E0.32457
G1 X78.887 Y68.371 E0.35583
G1 X79.378 Y68.231 E0.37961
G1 X79.665 Y68.153 E0.39346
G1 X79.95 Y68.08 E0.40716
G1 X80.867 Y67.886 E0.4508
G1 X81.53 Y67.796 E0.48195
G1 X82.006 Y67.746 E0.50424
G1 X82.332 Y67.717 E0.51948
G1 X82.652 Y67.693 E0.53442
G1 X83.183 Y67.666 E0.55918
G1 X83.635 Y67.654 E0.58024
G1 X83.927 Y67.65 E0.59383
G1 X135.793 Y67.65 E3.00893
G1 X135.953 Y67.651 E3.01638
G1 X136.641 Y67.661 E3.04842
G1 X137.26 Y67.688 E3.07727
G1 X137.711 Y67.72 E3.09833
G1 X138.049 Y67.749 E3.11412
G1 X138.392 Y67.784 E3.13018
G1 X139.32 Y67.919 E3.17384
G1 X139.932 Y68.053 E3.20302
G1 X140.382 Y68.165 E3.22461
G1 X140.688 Y68.246 E3.23935
G1 X140.999 Y68.333 E3.25439
G1 X141.891 Y68.624 E3.29808
G1 X142.519 Y68.881 E3.32967
G1 X143.012 Y69.101 E3.35481
G1 X143.258 Y69.215 E3.36743
G1 X143.489 Y69.325 E3.37935
G1 X144.318 Y69.763 E3.42301
G1 X144.905 Y70.133 E3.45532
G1 X145.34 Y70.426 E3.47974
G1 X145.612 Y70.614 E3.49513
G1 X145.832 Y70.772 E3.50775
G1 X146.569 Y71.351 E3.55139
G1 X147.044 Y71.782 E3.58125
G1 X147.419 Y72.143 E3.60549
G1 X147.68 Y72.403 E3.62265
G1 X147.885 Y72.614 E3.63635
G1 X148.509 Y73.314 E3.68001
G1 X148.883 Y73.798 E3.70849
G1 X149.171 Y74.193 E3.73126
G1 X149.386 Y74.499 E3.74867
G1 X149.561 Y74.757 E3.76319
G1 X150.054 Y75.555 E3.80686
G1 X150.336 Y76.091 E3.83506
G1 X150.558 Y76.544 E3.85856
G1 X150.706 Y76.859 E3.87476
G1 X150.827 Y77.127 E3.88845
G1 X151.176 Y77.997 E3.9321
G1 X151.376 Y78.625 E3.96279
G1 X151.512 Y79.1 E3.9858
G1 X151.594 Y79.402 E4.00037
G1 X151.671 Y79.703 E4.01484
G1 X151.864 Y80.621 E4.05852
G1 X151.954 Y81.28 E4.08949
G1 X152.004 Y81.756 E4.11177
G1 X152.035 Y82.103 E4.128
G1 X152.057 Y82.404 E4.14205
G1 X152.084 Y83.018 E4.17067
G1 X152.098 Y83.837 E4.20881
G1 X152.1 Y84.025 E4.21756
G1 X152.1 Y136.01 E6.6382
G1 X152.099 Y136.163 E6.64533
G1 X152.089 Y136.884 E6.6789
G1 X152.062 Y137.51 E6.70808
G1 X152.03 Y137.961 E6.72913
G1 X152.001 Y138.299 E6.74493
G1 X151.966 Y138.642 E6.76098
G1 X151.831 Y139.57 E6.80465
G1 X151.697 Y140.182 E6.83382
G1 X151.585 Y140.632 E6.85542
G1 X151.502 Y140.947 E6.87058
G1 X151.415 Y141.257 E6.88558
G1 X151.123 Y142.149 E6.92928
G1 X150.873 Y142.76 E6.96002
G1 X150.653 Y143.254 E6.9852
G1 X150.535 Y143.508 E6.99824
G1 X150.425 Y143.739 E7.01016
G1 X149.987 Y144.568 E7.05382
G1 X149.617 Y145.155 E7.08613
G1 X149.324 Y145.59 E7.11055
G1 X149.131 Y145.868 E7.12631
G1 X148.967 Y146.096 E7.13938
G1 X148.387 Y146.834 E7.18309
G1 X147.942 Y147.322 E7.21384
G1 X147.584 Y147.692 E7.23782
G1 X147.343 Y147.934 E7.25372
G1 X147.135 Y148.136 E7.26722
G1 X146.434 Y148.76 E7.31092
G1 X145.952 Y149.133 E7.3393
G1 X145.557 Y149.421 E7.36206
G1 X145.251 Y149.636 E7.37948
G1 X144.993 Y149.811 E7.39399
G1 X144.195 Y150.304 E7.43767
G1 X143.659 Y150.586 E7.46587
G1 X143.206 Y150.808 E7.48936
G1 X142.877 Y150.962 E7.50628
G1 X142.608 Y151.083 E7.52001
G1 X141.738 Y151.431 E7.56364
G1 X141.118 Y151.628 E7.59394
G1 X140.628 Y151.768 E7.61767
G1 X140.335 Y151.847 E7.6318
G1 X140.05 Y151.92 E7.6455
G1 X139.133 Y152.114 E7.68914
G1 X138.47 Y152.204 E7.7203
G1 X137.994 Y152.254 E7.74258
G1 X137.648 Y152.285 E7.75876
G1 X137.361 Y152.306 E7.77216
G1 X136.735 Y152.334 E7.80134
G1 X135.863 Y152.348 E7.84194
G1 X135.69 Y152.349 E7.85
G1 X132.717 Y152.35 E7.98844
G1 X84.207 Y152.35 E10.24726
G1 X84.047 Y152.349 E10.25472
G1 X83.359 Y152.339 E10.28675
G1 X82.74 Y152.312 E10.31561
G1 X82.289 Y152.28 E10.33666
G1 X81.951 Y152.251 E10.35246
G1 X81.608 Y152.216 E10.36851
G1 X80.68 Y152.081 E10.41218
G1 X80.068 Y151.947 E10.44135
G1 X79.618 Y151.835 E10.46294
G1 X79.312 Y151.754 E10.47768
G1 X79.001 Y151.667 E10.49272
G1 X78.109 Y151.376 E10.53641
G1 X77.481 Y151.119 E10.568
G1 X76.988 Y150.899 E10.59314
G1 X76.685 Y150.758 E10.6087
G1 X76.447 Y150.643 E10.62101
G1 X75.621 Y150.2 E10.66466
G1 X75.092 Y149.865 E10.69381
G1 X74.664 Y149.577 E10.71783
G1 X74.382 Y149.381 E10.73383
G1 X74.154 Y149.217 E10.7469
G1 X73.416 Y148.637 E10.79061
G1 X72.928 Y148.192 E10.82136
G1 X72.558 Y147.834 E10.84534
G1 X72.316 Y147.593 E10.86124
G1 X72.114 Y147.385 E10.87474
G1 X71.49 Y146.684 E10.91844
G1 X71.115 Y146.199 E10.94699
G1 X70.825 Y145.801 E10.96992
G1 X70.612 Y145.499 E10.98713
G1 X70.439 Y145.244 E11.00147
G1 X69.946 Y144.446 E11.04515
G1 X69.657 Y143.894 E11.07417
G1 X69.428 Y143.425 E11.09847
G1 X69.291 Y143.133 E11.11349
G1 X69.177 Y142.881 E11.12637
G1 X68.827 Y142.011 E11.17003
G1 X68.619 Y141.358 E11.20194
G1 X68.473 Y140.845 E11.22678
G1 X68.393 Y140.55 E11.24101
G1 X68.326 Y140.287 E11.25365
G1 X68.134 Y139.369 E11.29732
G1 X68.046 Y138.72 E11.32782
G1 X67.996 Y138.244 E11.3501
G1 X67.966 Y137.903 E11.36604
G1 X67.945 Y137.618 E11.37935
G1 X67.916 Y136.988 E11.40872
G1 X67.902 Y136.121 E11.44909
G1 X67.901 Y135.943 E11.45738
G1 X67.9 Y83.945 E13.87863
G1 X67.901 Y83.779 E13.88636
G1 X67.911 Y83.116 E13.91723
G1 X67.938 Y82.497 E13.94608
G1 X67.973 Y82.008 E13.96891
G1 X68 Y81.692 E13.98368
G1 X68.032 Y81.374 E13.99856
G1 X68.166 Y80.445 E14.04227
G1 X68.303 Y79.818 E14.07215
G1 X68.415 Y79.368 E14.09374
G1 X68.498 Y79.053 E14.10891
G1 X68.585 Y78.743 E14.12391
G1 X68.877 Y77.851 E14.16761
G1 X69.127 Y77.24 E14.19835
G1 X69.347 Y76.746 E14.22353
G1 X69.465 Y76.492 E14.23657
G1 X69.575 Y76.261 E14.24849
G1 X70.013 Y75.432 E14.29214
G1 X70.385 Y74.841 E14.32466
G1 X70.687 Y74.393 E14.34982
G1 X70.885 Y74.109 E14.36594
G1 X71.04 Y73.894 E14.37828
G1 X71.62 Y73.157 E14.42195
G1 X72.06 Y72.676 E14.45231
G1 X72.424 Y72.3 E14.47667
G0 F9000 X72.711 Y72.578
G1 F1800 X72.946 Y72.344 E14.49212
G1 X73.148 Y72.148 E14.50522
G1 X73.835 Y71.536 E14.54807
G1 X74.284 Y71.19 E14.57446
G1 X74.679 Y70.902 E14.59722
G1 X74.974 Y70.695 E14.614
G1 X75.232 Y70.52 E14.62852
G1 X76.015 Y70.036 E14.67138
G1 X76.517 Y69.774 E14.69775
G1 X76.97 Y69.552 E14.72124
G1 X77.273 Y69.409 E14.73684
G1 X77.541 Y69.288 E14.75053
G1 X78.396 Y68.946 E14.79341
G1 X78.996 Y68.755 E14.82273
G1 X79.487 Y68.615 E14.84651
G1 X79.764 Y68.54 E14.85987
G1 X80.049 Y68.467 E14.87357
G1 X80.95 Y68.278 E14.91644
G1 X81.572 Y68.194 E14.94566
G1 X82.048 Y68.144 E14.96795
G1 X82.362 Y68.116 E14.98263
G1 X82.682 Y68.092 E14.99757
G1 X83.194 Y68.066 E15.02144
G1 X83.646 Y68.054 E15.0425
G1 X83.927 Y68.05 E15.05558
G1 X135.793 Y68.05 E17.47068
G1 X135.947 Y68.051 E17.47785
G1 X136.635 Y68.061 E17.50989
G1 X137.231 Y68.087 E17.53767
G1 X137.682 Y68.119 E17.55872
G1 X138.008 Y68.147 E17.57396
G1 X138.351 Y68.182 E17.59001
G1 X139.262 Y68.315 E17.63288
G1 X139.835 Y68.441 E17.6602
G1 X140.285 Y68.553 E17.6818
G1 X140.581 Y68.631 E17.69605
G1 X140.892 Y68.718 E17.71109
G1 X141.767 Y69.004 E17.75395
G1 X142.356 Y69.246 E17.7836
G1 X142.849 Y69.466 E17.80874
G1 X143.086 Y69.576 E17.82091
G1 X143.317 Y69.686 E17.83282
G1 X144.131 Y70.117 E17.87571
G1 X144.682 Y70.464 E17.90603
G1 X145.117 Y70.757 E17.93045
G1 X145.378 Y70.939 E17.94527
G1 X145.598 Y71.097 E17.95788
G1 X146.322 Y71.666 E18.00076
G1 X146.766 Y72.07 E18.02871
G1 X147.141 Y72.431 E18.05295
G1 X147.393 Y72.682 E18.06951
G1 X147.598 Y72.893 E18.08321
G1 X148.21 Y73.58 E18.12605
G1 X148.56 Y74.034 E18.15274
G1 X148.848 Y74.429 E18.17551
G1 X149.055 Y74.724 E18.19229
G1 X149.23 Y74.982 E18.2068
G1 X149.714 Y75.765 E18.24967
G1 X149.976 Y76.267 E18.27603
G1 X150.198 Y76.72 E18.29952
G1 X150.341 Y77.023 E18.31512
G1 X150.462 Y77.291 E18.32882
G1 X150.804 Y78.146 E18.3717
G1 X150.992 Y78.735 E18.40049
G1 X151.128 Y79.21 E18.42349
G1 X151.206 Y79.501 E18.43752
G1 X151.283 Y79.802 E18.45199
G1 X151.473 Y80.703 E18.49486
G1 X151.556 Y81.322 E18.52395
G1 X151.606 Y81.798 E18.54623
G1 X151.636 Y82.132 E18.56185
G1 X151.658 Y82.433 E18.5759
G1 X151.684 Y83.025 E18.60349
G1 X151.698 Y83.844 E18.64164
G1 X151.7 Y84.025 E18.65006
G1 X151.7 Y136.01 E21.0707
G1 X151.699 Y136.157 E21.07755
G1 X151.689 Y136.878 E21.11112
G1 X151.663 Y137.481 E21.13923
G1 X151.631 Y137.932 E21.16028
G1 X151.603 Y138.258 E21.17552
G1 X151.568 Y138.601 E21.19157
G1 X151.435 Y139.512 E21.23444
G1 X151.309 Y140.085 E21.26176
G1 X151.197 Y140.535 E21.28335
G1 X151.117 Y140.839 E21.29799
G1 X151.03 Y141.149 E21.31298
G1 X150.743 Y142.024 E21.35586
G1 X150.507 Y142.597 E21.38472
G1 X150.287 Y143.091 E21.4099
G1 X150.174 Y143.336 E21.42246
G1 X150.064 Y143.567 E21.43438
G1 X149.633 Y144.381 E21.47726
G1 X149.286 Y144.932 E21.50759
G1 X148.993 Y145.367 E21.53201
G1 X148.806 Y145.635 E21.54722
G1 X148.642 Y145.863 E21.5603
G1 X148.073 Y146.586 E21.60314
G1 X147.655 Y147.044 E21.63202
G1 X147.297 Y147.414 E21.65599
G1 X147.064 Y147.647 E21.67133
G1 X146.856 Y147.849 E21.68483
G1 X146.168 Y148.461 E21.72771
G1 X145.716 Y148.81 E21.7543
G1 X145.321 Y149.098 E21.77706
G1 X145.026 Y149.305 E21.79385
G1 X144.768 Y149.48 E21.80836
G1 X143.985 Y149.964 E21.85122
G1 X143.483 Y150.226 E21.87759
G1 X143.03 Y150.448 E21.90108
G1 X142.713 Y150.597 E21.91739
G1 X142.444 Y150.718 E21.93113
G1 X141.589 Y151.059 E21.97399
G1 X141.008 Y151.243 E22.00237
G1 X140.518 Y151.383 E22.0261
G1 X140.236 Y151.46 E22.03971
G1 X139.951 Y151.533 E22.05341
G1 X139.05 Y151.722 E22.09627
G1 X138.428 Y151.806 E22.1255
G1 X137.952 Y151.856 E22.14779
G1 X137.619 Y151.886 E22.16336
G1 X137.332 Y151.907 E22.17676
G1 X136.728 Y151.934 E22.20491
G1 X135.856 Y151.948 E22.24552
G1 X135.69 Y151.949 E22.25325
G1 X132.717 Y151.95 E22.39168
G1 X84.207 Y151.95 E24.65051
G1 X84.053 Y151.949 E24.65768
G1 X83.365 Y151.939 E24.68972
G1 X82.769 Y151.913 E24.7175
G1 X82.318 Y151.881 E24.73855
G1 X81.992 Y151.853 E24.75379
G1 X81.649 Y151.818 E24.76984
G1 X80.738 Y151.685 E24.81271
G1 X80.165 Y151.559 E24.84003
G1 X79.715 Y151.447 E24.86163
G1 X79.419 Y151.369 E24.87588
G1 X79.108 Y151.282 E24.89092
G1 X78.233 Y150.996 E24.93378
G1 X77.644 Y150.754 E24.96343
G1 X77.151 Y150.534 E24.98857
G1 X76.859 Y150.398 E25.00357
G1 X76.621 Y150.283 E25.01588
G1 X75.811 Y149.847 E25.05871
G1 X75.315 Y149.533 E25.08605
G1 X74.887 Y149.245 E25.11007
G1 X74.615 Y149.056 E25.12549
G1 X74.387 Y148.892 E25.13857
G1 X73.664 Y148.323 E25.18141
G1 X73.206 Y147.905 E25.21028
G1 X72.836 Y147.547 E25.23426
G1 X72.603 Y147.314 E25.2496
G1 X72.401 Y147.106 E25.2631
G1 X71.789 Y146.418 E25.30598
G1 X71.438 Y145.963 E25.33274
G1 X71.148 Y145.565 E25.35567
G1 X70.943 Y145.274 E25.37224
G1 X70.77 Y145.019 E25.38659
G1 X70.287 Y144.235 E25.42947
G1 X70.017 Y143.719 E25.45659
G1 X69.788 Y143.25 E25.48089
G1 X69.655 Y142.968 E25.49541
G1 X69.541 Y142.716 E25.50829
G1 X69.199 Y141.861 E25.55117
G1 X69.004 Y141.249 E25.58107
G1 X68.858 Y140.736 E25.60591
G1 X68.781 Y140.451 E25.61966
G1 X68.714 Y140.188 E25.63229
G1 X68.526 Y139.287 E25.67515
G1 X68.444 Y138.678 E25.70377
G1 X68.394 Y138.202 E25.72605
G1 X68.365 Y137.874 E25.74138
G1 X68.344 Y137.589 E25.75469
G1 X68.316 Y136.981 E25.78303
G1 X68.302 Y136.114 E25.82341
G1 X68.301 Y135.943 E25.83137
G1 X68.3 Y83.945 E28.25262
G1 X68.301 Y83.785 E28.26007
G1 X68.311 Y83.122 E28.29094
G1 X68.337 Y82.525 E28.31877
G1 X68.372 Y82.036 E28.3416
G1 X68.398 Y81.732 E28.3558
G1 X68.43 Y81.414 E28.37068
G1 X68.562 Y80.503 E28.41355
G1 X68.691 Y79.915 E28.44158
G1 X68.803 Y79.465 E28.46317
G1 X68.883 Y79.161 E28.47781
G1 X68.97 Y78.851 E28.4928
G1 X69.257 Y77.976 E28.53568
G1 X69.493 Y77.403 E28.56454
G1 X69.713 Y76.909 E28.58972
G1 X69.826 Y76.664 E28.60228
G1 X69.936 Y76.433 E28.61419
G1 X70.367 Y75.619 E28.65708
G1 X70.717 Y75.065 E28.6876
G1 X71.019 Y74.617 E28.71275
G1 X71.21 Y74.343 E28.72831
G1 X71.365 Y74.128 E28.74065
G1 X71.935 Y73.405 E28.78352
G1 X72.347 Y72.954 E28.81196
G1 X72.711 Y72.578 E28.83633
G0 F9000 X72.999 Y72.856
G1 F1800 X73.224 Y72.631 E28.85115
G1 X73.426 Y72.435 E28.86425
G1 X74.101 Y71.835 E28.90631
G1 X74.52 Y71.513 E28.93091
G1 X74.915 Y71.225 E28.95368
G1 X75.198 Y71.026 E28.96979
G1 X75.456 Y70.851 E28.9843
G1 X76.225 Y70.377 E29.02637
G1 X76.693 Y70.133 E29.05094
G1 X77.146 Y69.911 E29.07443
G1 X77.438 Y69.774 E29.08945
G1 X77.706 Y69.653 E29.10314
G1 X78.544 Y69.318 E29.14517
G1 X79.106 Y69.14 E29.17262
G1 X79.597 Y69 E29.19639
G1 X79.863 Y68.928 E29.20922
G1 X80.148 Y68.855 E29.22292
G1 X81.032 Y68.67 E29.26498
G1 X81.613 Y68.592 E29.29227
G1 X82.089 Y68.542 E29.31456
G1 X82.392 Y68.515 E29.32872
G1 X82.712 Y68.491 E29.34367
G1 X83.204 Y68.466 E29.36661
G1 X83.656 Y68.454 E29.38766
G1 X83.927 Y68.45 E29.40028
G1 X135.793 Y68.45 E31.81538
G1 X135.941 Y68.451 E31.82227
G1 X136.629 Y68.461 E31.85431
G1 X137.203 Y68.486 E31.88106
G1 X137.654 Y68.518 E31.90212
G1 X137.967 Y68.545 E31.91674
G1 X138.31 Y68.58 E31.9328
G1 X139.204 Y68.711 E31.97487
G1 X139.739 Y68.829 E32.00038
G1 X140.189 Y68.941 E32.02198
G1 X140.473 Y69.016 E32.03565
G1 X140.784 Y69.103 E32.05069
G1 X141.642 Y69.385 E32.09275
G1 X142.193 Y69.611 E32.12048
G1 X142.686 Y69.831 E32.14561
G1 X142.914 Y69.937 E32.15732
G1 X143.145 Y70.047 E32.16924
G1 X143.943 Y70.471 E32.21131
G1 X144.458 Y70.796 E32.23967
G1 X144.893 Y71.089 E32.26409
G1 X145.145 Y71.264 E32.27838
G1 X145.365 Y71.422 E32.29099
G1 X146.074 Y71.981 E32.33303
G1 X146.489 Y72.359 E32.35917
G1 X146.864 Y72.72 E32.38341
G1 X147.106 Y72.96 E32.39928
G1 X147.311 Y73.171 E32.41298
G1 X147.911 Y73.846 E32.45503
G1 X148.237 Y74.27 E32.47993
G1 X148.525 Y74.665 E32.5027
G1 X148.724 Y74.948 E32.51881
G1 X148.899 Y75.206 E32.53332
G1 X149.373 Y75.975 E32.57539
G1 X149.617 Y76.443 E32.59996
G1 X149.839 Y76.896 E32.62345
G1 X149.976 Y77.188 E32.63847
G1 X150.097 Y77.456 E32.65216
G1 X150.432 Y78.294 E32.69419
G1 X150.607 Y78.845 E32.72111
G1 X150.743 Y79.32 E32.74411
G1 X150.819 Y79.6 E32.75762
G1 X150.896 Y79.901 E32.77209
G1 X151.081 Y80.785 E32.81414
G1 X151.158 Y81.363 E32.8413
G1 X151.208 Y81.839 E32.86358
G1 X151.237 Y82.161 E32.87864
G1 X151.259 Y82.462 E32.89269
G1 X151.285 Y83.032 E32.91926
G1 X151.299 Y83.851 E32.9574
G1 X151.3 Y84.025 E32.9655
G1 X151.3 Y136.01 E35.38614
G1 X151.299 Y136.151 E35.39271
G1 X151.289 Y136.872 E35.42629
G1 X151.264 Y137.453 E35.45336
G1 X151.232 Y137.904 E35.47442
G1 X151.205 Y138.217 E35.48905
G1 X151.17 Y138.56 E35.5051
G1 X151.039 Y139.454 E35.54717
G1 X150.921 Y139.989 E35.57268
G1 X150.809 Y140.439 E35.59428
G1 X150.732 Y140.731 E35.60834
